projects/GroupAssignment2CBS/res/luts/cool.CUBE
#Created by: Adobe Photoshop Export Color Lookup Plugin
TITLE "sample.png"
#LUT size
LUT_3D_SIZE 5
#data domain
#LUT data points
DOMAIN_MIN 0.000000 0.000000 0.000000
DOMAIN_MAX 0.903226 0.903226 0.903226
0.000000 0.000000 0.000000
0.121307 0.022888 0.011719
0.263184 0.080658 0.048096
0.404938 0.140869 0.094055
0.546844 0.201141 0.139984
0.000000 0.157166 0.079681
0.071960 0.164337 0.086548
0.244873 0.184814 0.105682
0.394440 0.217529 0.134766
0.539551 0.259491 0.170288
0.000000 0.327759 0.188049
0.000000 0.330841 0.191132
0.174072 0.340637 0.200409
0.358612 0.358002 0.216858
0.516144 0.382904 0.239807
0.000000 0.498352 0.296326
0.000000 0.500244 0.298157
0.000000 0.506165 0.303925
0.276398 0.516998 0.314301
0.467987 0.533173 0.329712
0.000000 0.668976 0.404602
0.000000 0.670227 0.405914
0.000000 0.674347 0.409882
0.000000 0.681885 0.417236
0.378510 0.693298 0.428284
0.000000 0.024017 0.299438
0.000000 0.046539 0.301331
0.208588 0.093719 0.306976
0.374878 0.149109 0.317291
0.526550 0.207001 0.332550
0.000000 0.164581 0.313599
0.000000 0.171539 0.315338
0.184174 0.190979 0.320679
0.363129 0.222900 0.330475
0.518951 0.263885 0.345032
0.000000 0.331116 0.353302
0.000000 0.334167 0.354828
0.062500 0.343781 0.359497
0.323181 0.360962 0.368103
0.494263 0.385681 0.380890
0.000000 0.500305 0.416046
0.000000 0.502228 0.417328
0.000000 0.508148 0.421112
0.225342 0.518921 0.428223
0.443237 0.534912 0.438934
0.000000 0.670349 0.494659
0.000000 0.671600 0.495636
0.000000 0.675690 0.498779
0.000000 0.683228 0.504486
0.345459 0.694611 0.513275
0.000000 0.082855 0.584534
0.000000 0.095490 0.585358
0.000000 0.127563 0.587860
0.252747 0.172333 0.592560
0.455994 0.223999 0.599731
0.000000 0.185822 0.590851
0.000000 0.191864 0.591644
0.000000 0.209473 0.594116
0.233521 0.238586 0.598755
0.446838 0.277039 0.605804
0.000000 0.341187 0.609955
0.000000 0.344208 0.610718
0.000000 0.353455 0.613098
0.157257 0.370087 0.617523
0.416748 0.394104 0.624329
0.000000 0.506531 0.643921
0.000000 0.508331 0.644623
0.000000 0.514130 0.646851
0.000000 0.524750 0.651001
0.351227 0.540619 0.657349
0.000000 0.674561 0.692200
0.000000 0.675812 0.692841
0.000000 0.679871 0.694855
0.000000 0.687347 0.698639
0.202637 0.698669 0.704468
0.000000 0.144470 0.869659
0.000000 0.152252 0.870148
0.000000 0.174255 0.871643
0.000000 0.208923 0.874451
0.261292 0.252350 0.878784
0.000000 0.219910 0.873444
0.000000 0.224945 0.873901
0.000000 0.239899 0.875397
0.000000 0.265381 0.878204
0.242859 0.299744 0.882507
0.000000 0.359283 0.885071
0.000000 0.362152 0.885529
0.000000 0.370789 0.886993
0.000000 0.386597 0.889771
0.171021 0.409485 0.894012
0.000000 0.517853 0.906403
0.000000 0.519653 0.906860
0.000000 0.525238 0.908264
0.000000 0.535583 0.910950
0.000000 0.551056 0.915039
0.000000 0.682465 0.938049
0.000000 0.683685 0.938507
0.000000 0.687683 0.939850
0.000000 0.695068 0.942383
0.000000 0.706207 0.946320
0.000000 0.206085 1.000000
0.000000 0.211487 1.000000
0.000000 0.227264 1.000000
0.000000 0.254181 1.000000
0.000000 0.290222 1.000000
0.000000 0.263184 1.000000
0.000000 0.267303 1.000000
0.000000 0.279602 1.000000
0.000000 0.301239 1.000000
0.000000 0.331421 1.000000
0.000000 0.385254 1.000000
0.000000 0.387878 1.000000
0.000000 0.395874 1.000000
0.000000 0.410461 1.000000
0.000000 0.431763 1.000000
0.000000 0.534637 1.000000
0.000000 0.536407 1.000000
0.000000 0.541809 1.000000
0.000000 0.551788 1.000000
0.000000 0.566711 1.000000
0.000000 0.694366 1.000000
0.000000 0.695618 1.000000
0.000000 0.699524 1.000000
0.000000 0.706726 1.000000
0.000000 0.717651 1.000000
