projects/GroupAssignment2CBS/res/luts/cool.CUBE
#Created by: Adobe Photoshop Export Color Lookup Plugin
TITLE "sample.png"
#LUT size
LUT_3D_SIZE 32
#data domain
DOMAIN_MIN 0.0 0.0 0.0
DOMAIN_MAX 1.0 1.0 1.0
#LUT data points
0.000000 0.000000 0.000000
0.011292 0.000854 0.000580
0.023468 0.002472 0.001465
0.039551 0.005646 0.002533
0.060211 0.008484 0.003937
0.080688 0.012726 0.005951
0.100586 0.017578 0.008667
0.121307 0.022888 0.011719
0.141937 0.029022 0.015320
0.161896 0.037689 0.019348
0.182037 0.046265 0.024017
0.202393 0.054626 0.029297
0.222839 0.062866 0.035309
0.242920 0.071686 0.041321
0.263184 0.080658 0.048096
0.283478 0.088959 0.054474
0.303680 0.097809 0.061462
0.324005 0.106262 0.067993
0.344299 0.114777 0.074371
0.364502 0.123444 0.081177
0.384705 0.132202 0.087555
0.404938 0.140869 0.094055
0.425354 0.149292 0.100464
0.445465 0.158264 0.107117
0.465759 0.166779 0.113678
0.486053 0.175323 0.120422
0.506287 0.183990 0.126862
0.526581 0.192566 0.133362
0.546844 0.201141 0.139984
0.567078 0.209808 0.146515
0.587280 0.218506 0.153168
0.607574 0.227142 0.159668
0.000000 0.016937 0.005524
0.004944 0.017792 0.006104
0.017090 0.019409 0.007446
0.035065 0.021454 0.008179
0.056702 0.024292 0.009613
0.077209 0.028717 0.011719
0.098389 0.033264 0.014496
0.118927 0.039093 0.017853
0.139587 0.045654 0.021301
0.160065 0.052399 0.025391
0.180450 0.059631 0.030090
0.200989 0.066772 0.035034
0.221222 0.074646 0.040436
0.241882 0.082001 0.046936
0.262146 0.089905 0.052856
0.282410 0.097870 0.059296
0.302887 0.105713 0.064911
0.323120 0.113953 0.071472
0.343445 0.121979 0.078094
0.363739 0.130219 0.084198
0.384125 0.138367 0.090424
0.404388 0.146637 0.096954
0.424683 0.154877 0.103424
0.444916 0.163330 0.109955
0.465240 0.171570 0.116364
0.485565 0.179871 0.122772
0.505768 0.188538 0.129059
0.526123 0.196716 0.135651
0.546356 0.205292 0.142181
0.566620 0.213776 0.148560
0.586945 0.222168 0.154999
0.607178 0.230591 0.161621
0.000000 0.035309 0.012360
0.000000 0.036957 0.012390
0.010925 0.037872 0.013855
0.028259 0.040649 0.014496
0.051086 0.043365 0.016357
0.072876 0.047455 0.018372
0.094940 0.051331 0.020630
0.116028 0.056030 0.023956
0.137146 0.061432 0.027435
0.157928 0.067017 0.031525
0.178589 0.073090 0.036377
0.199341 0.079224 0.041229
0.220154 0.085541 0.046326
0.240265 0.092957 0.052185
0.260864 0.099915 0.058197
0.281250 0.107239 0.063873
0.301788 0.114471 0.069885
0.322266 0.121796 0.075470
0.342621 0.129425 0.081940
0.362915 0.137451 0.087708
0.383209 0.145386 0.093689
0.403656 0.153107 0.100098
0.423981 0.161041 0.106384
0.444244 0.169128 0.112762
0.464630 0.177094 0.118988
0.484985 0.185150 0.125305
0.505249 0.193329 0.131531
0.525604 0.201477 0.137939
0.545898 0.209656 0.144409
0.566193 0.217987 0.150696
0.586517 0.226227 0.157043
0.606750 0.234619 0.163544
0.000000 0.059784 0.021515
0.000000 0.060974 0.021545
0.000946 0.061615 0.022980
0.018372 0.063660 0.023621
0.042145 0.065735 0.025482
0.066071 0.068878 0.027466
0.089569 0.071899 0.029755
0.111603 0.075531 0.033142
0.133423 0.079834 0.036713
0.154694 0.084473 0.040863
0.175720 0.089569 0.045258
0.196869 0.094849 0.049622
0.217896 0.100250 0.054169
0.238617 0.106232 0.059692
0.259064 0.112976 0.064728
0.279785 0.119324 0.070313
0.300232 0.126068 0.075806
0.320831 0.132813 0.081177
0.341309 0.139771 0.087250
0.361664 0.147278 0.092743
0.382263 0.154266 0.098511
0.402557 0.161987 0.104553
0.423035 0.169220 0.110718
0.443298 0.177155 0.116760
0.463715 0.184753 0.122803
0.484131 0.192444 0.128967
0.504456 0.200287 0.135010
0.524811 0.208160 0.141296
0.545135 0.216095 0.147583
0.565491 0.224091 0.153748
0.585846 0.232117 0.159943
0.606171 0.240204 0.166351
0.000000 0.084015 0.033081
0.000000 0.085175 0.034485
0.000000 0.085663 0.035034
0.005310 0.086853 0.036743
0.028717 0.088898 0.038086
0.056488 0.090912 0.040161
0.082184 0.093323 0.042786
0.105530 0.096680 0.044556
0.128510 0.099823 0.048218
0.150909 0.103485 0.051758
0.172302 0.108093 0.055206
0.193390 0.112793 0.060120
0.214783 0.117432 0.064117
0.235870 0.122559 0.068695
0.256714 0.128204 0.073059
0.277618 0.133911 0.078339
0.298248 0.139923 0.083221
0.319061 0.146179 0.088409
0.339508 0.152649 0.093811
0.360229 0.159180 0.099274
0.380676 0.166016 0.104858
0.401154 0.172943 0.110718
0.421631 0.179932 0.116241
0.442169 0.187073 0.121887
0.462585 0.194458 0.127899
0.482971 0.201813 0.133636
0.503418 0.209229 0.139771
0.523743 0.216827 0.145691
0.544250 0.224274 0.151642
0.564514 0.232086 0.157806
0.584930 0.239777 0.164032
0.605286 0.247620 0.169983
0.000000 0.108368 0.048706
0.000000 0.108948 0.049194
0.000000 0.109711 0.049957
0.000000 0.110657 0.050964
0.012665 0.112305 0.052063
0.042572 0.113922 0.053802
0.072144 0.115906 0.056000
0.097382 0.118713 0.058228
0.121826 0.121277 0.061340
0.144958 0.124481 0.064026
0.167236 0.128082 0.067383
0.189331 0.131927 0.071014
0.210968 0.136230 0.075104
0.232483 0.140747 0.078827
0.253601 0.145660 0.083038
0.274811 0.150665 0.087372
0.295654 0.156097 0.092316
0.316467 0.161804 0.097015
0.337311 0.167542 0.101837
0.358002 0.173584 0.107117
0.378723 0.179718 0.112427
0.399353 0.186127 0.117432
0.419952 0.192596 0.122681
0.440582 0.199219 0.128296
0.460968 0.206238 0.133820
0.481537 0.213074 0.139618
0.502136 0.219910 0.145294
0.522461 0.227264 0.150909
0.542908 0.234436 0.156982
0.563354 0.241791 0.162659
0.583801 0.249146 0.168671
0.604218 0.256622 0.174683
0.000000 0.132782 0.064362
0.000000 0.133392 0.064392
0.000000 0.133759 0.065399
0.000000 0.134796 0.065857
0.000000 0.135864 0.066864
0.021973 0.137543 0.068298
0.057281 0.139160 0.070160
0.087250 0.141144 0.072418
0.113281 0.143463 0.074677
0.137482 0.146423 0.077209
0.161224 0.149384 0.080139
0.183777 0.152771 0.083038
0.206238 0.156281 0.086731
0.228088 0.160431 0.090027
0.249603 0.164734 0.093781
0.270966 0.169312 0.097900
0.292328 0.173981 0.102173
0.313477 0.178894 0.106781
0.334564 0.184082 0.111206
0.355347 0.189758 0.116058
0.376282 0.195374 0.120728
0.397064 0.201202 0.125488
0.417786 0.207184 0.130615
0.438538 0.213318 0.135864
0.459106 0.219666 0.141144
0.479767 0.226074 0.146484
0.500397 0.232605 0.151825
0.520874 0.239349 0.157410
0.541473 0.246063 0.163116
0.561920 0.253113 0.168671
0.582428 0.260101 0.174347
0.602905 0.267242 0.180176
0.000000 0.157166 0.079681
0.000000 0.157440 0.080048
0.000000 0.157959 0.080597
0.000000 0.158600 0.081329
0.000000 0.159851 0.082092
0.000000 0.160919 0.083344
0.035675 0.162598 0.084900
0.071960 0.164337 0.086548
0.102081 0.166229 0.088593
0.128326 0.168793 0.090820
0.153107 0.171448 0.093323
0.177094 0.174316 0.096100
0.200378 0.177368 0.098907
0.222717 0.180878 0.102325
0.244873 0.184814 0.105682
0.266815 0.188660 0.109222
0.288422 0.193024 0.113312
0.309906 0.197418 0.117249
0.331207 0.202087 0.121277
0.352386 0.207062 0.125427
0.373352 0.212280 0.130188
0.394440 0.217529 0.134766
0.415344 0.223022 0.139374
0.436035 0.228943 0.144287
0.456848 0.234741 0.149261
0.477631 0.240662 0.154480
0.498291 0.246857 0.159515
0.518982 0.253113 0.164703
0.539551 0.259491 0.170288
0.560181 0.266052 0.175476
0.580688 0.272705 0.181030
0.601288 0.279419 0.186676
0.000000 0.181427 0.095276
0.000000 0.181976 0.095520
0.000000 0.182404 0.095947
0.000000 0.182983 0.096558
0.000000 0.183777 0.097290
0.000000 0.184998 0.098358
0.006317 0.186218 0.099701
0.051056 0.187653 0.101166
0.086700 0.189392 0.102936
0.116760 0.191528 0.104858
0.143555 0.193848 0.107117
0.168640 0.196472 0.109375
0.192993 0.199127 0.112091
0.216339 0.202362 0.114868
0.239014 0.205750 0.118103
0.261719 0.209076 0.121307
0.283569 0.213074 0.125000
0.305359 0.217224 0.128571
0.327209 0.221344 0.132324
0.348755 0.225677 0.136139
0.369873 0.230560 0.140503
0.391144 0.235291 0.144653
0.412170 0.240448 0.149048
0.433228 0.245697 0.153687
0.454224 0.251038 0.158356
0.475037 0.256622 0.163300
0.495911 0.262329 0.168060
0.516632 0.268219 0.172974
0.537384 0.274261 0.178131
0.558044 0.280365 0.183197
0.578735 0.286591 0.188568
0.599365 0.292969 0.193817
0.000000 0.205933 0.110565
0.000000 0.206238 0.111023
0.000000 0.206604 0.111237
0.000000 0.207275 0.111938
0.000000 0.207794 0.112823
0.000000 0.208832 0.113708
0.000000 0.209900 0.114471
0.018311 0.211243 0.115784
0.065765 0.212860 0.117279
0.101135 0.214661 0.119049
0.131104 0.216736 0.121002
0.158356 0.219116 0.122986
0.184143 0.221497 0.125610
0.208710 0.224182 0.128021
0.232269 0.227234 0.130951
0.255493 0.230377 0.134155
0.278076 0.233795 0.137177
0.300507 0.237457 0.140472
0.322388 0.241333 0.143890
0.344177 0.245422 0.147705
0.365875 0.249664 0.151428
0.387299 0.254150 0.155548
0.408630 0.258759 0.159668
0.429962 0.263580 0.163757
0.451141 0.268494 0.168091
0.472107 0.273682 0.172729
0.493073 0.279114 0.177368
0.513916 0.284576 0.182098
0.534790 0.290161 0.186768
0.555603 0.295959 0.191833
0.576416 0.301788 0.196808
0.597198 0.307709 0.201721
0.000000 0.230225 0.125977
0.000000 0.230560 0.126373
0.000000 0.230927 0.126556
0.000000 0.231384 0.127197
0.000000 0.231995 0.127960
0.000000 0.232758 0.128784
0.000000 0.233856 0.129639
0.000000 0.235046 0.130615
0.033478 0.236481 0.131958
0.080719 0.238068 0.133514
0.115662 0.239899 0.135315
0.145966 0.241882 0.137451
0.173584 0.244141 0.139404
0.199188 0.246674 0.141907
0.224304 0.249176 0.144257
0.248169 0.252075 0.147186
0.271515 0.255280 0.149933
0.294464 0.258484 0.152954
0.316925 0.262085 0.156067
0.339142 0.265808 0.159576
0.361267 0.269562 0.163086
0.383026 0.273651 0.166870
0.404572 0.278015 0.170715
0.426178 0.282318 0.174500
0.447388 0.287048 0.178833
0.468719 0.291809 0.182922
0.489899 0.296722 0.187317
0.510925 0.301849 0.191803
0.531891 0.307190 0.196167
0.552887 0.312469 0.201019
0.573822 0.317963 0.205750
0.594666 0.323639 0.210419
0.000000 0.254669 0.141754
0.000000 0.254974 0.141754
0.000000 0.255157 0.142273
0.000000 0.255524 0.142548
0.000000 0.256195 0.143158
0.000000 0.256897 0.143921
0.000000 0.257751 0.144714
0.000000 0.258972 0.145874
0.000000 0.260101 0.147095
0.051086 0.261536 0.148193
0.095581 0.263184 0.150116
0.130341 0.265076 0.151703
0.160553 0.267059 0.153503
0.188416 0.269287 0.155792
0.214752 0.271637 0.158051
0.239685 0.274292 0.160553
0.264038 0.277069 0.163116
0.287567 0.280121 0.165833
0.310669 0.283295 0.169037
0.333405 0.286682 0.171997
0.355896 0.290222 0.175201
0.378021 0.294006 0.178741
0.399963 0.297882 0.182312
0.421661 0.302032 0.186096
0.443329 0.306274 0.189911
0.464813 0.310791 0.193878
0.486145 0.315399 0.197845
0.507446 0.320129 0.202087
0.528625 0.324982 0.206482
0.549744 0.330048 0.210815
0.570801 0.335205 0.215302
0.591797 0.340546 0.219971
0.000000 0.278961 0.157104
0.000000 0.279297 0.157379
0.000000 0.279572 0.157532
0.000000 0.279907 0.157776
0.000000 0.280396 0.158508
0.000000 0.281128 0.158875
0.000000 0.281921 0.159729
0.000000 0.282898 0.160797
0.000000 0.284027 0.161896
0.003571 0.285309 0.163177
0.066772 0.286804 0.164612
0.110382 0.288422 0.166107
0.144897 0.290283 0.167999
0.175629 0.292175 0.169830
0.203339 0.294495 0.171844
0.229889 0.296875 0.174194
0.255096 0.299438 0.176605
0.279572 0.302094 0.179321
0.303314 0.305145 0.181946
0.326630 0.308258 0.184967
0.349731 0.311401 0.187958
0.372253 0.314972 0.190948
0.394562 0.318573 0.194458
0.416748 0.322357 0.197845
0.438721 0.326263 0.201416
0.460419 0.330383 0.205139
0.482086 0.334656 0.208893
0.503510 0.339111 0.212891
0.524902 0.343628 0.217041
0.546204 0.348389 0.221191
0.567444 0.353210 0.225403
0.588562 0.358215 0.229828
0.000000 0.303345 0.172455
0.000000 0.303497 0.172882
0.000000 0.303802 0.172882
0.000000 0.304230 0.173187
0.000000 0.304688 0.173889
0.000000 0.305176 0.174225
0.000000 0.305939 0.175018
0.000000 0.306854 0.175812
0.000000 0.307861 0.176971
0.000000 0.309174 0.178131
0.021576 0.310333 0.179352
0.083832 0.311920 0.180786
0.125275 0.313568 0.182556
0.159515 0.315491 0.184174
0.190063 0.317413 0.186096
0.218475 0.319580 0.188110
0.245026 0.321991 0.190460
0.270416 0.324493 0.192841
0.295105 0.327148 0.195404
0.319336 0.329987 0.198059
0.342743 0.333038 0.200928
0.365875 0.336243 0.203766
0.388550 0.339691 0.207001
0.411224 0.343079 0.210175
0.433472 0.346802 0.213409
0.455475 0.350647 0.217010
0.477417 0.354614 0.220581
0.499176 0.358704 0.224304
0.520782 0.362976 0.228241
0.542297 0.367401 0.232056
0.563629 0.371979 0.236176
0.584961 0.376678 0.240356
0.000000 0.327759 0.188049
0.000000 0.327881 0.188110
0.000000 0.328094 0.188446
0.000000 0.328491 0.188629
0.000000 0.328949 0.189117
0.000000 0.329437 0.189545
0.000000 0.330048 0.190247
0.000000 0.330841 0.191132
0.000000 0.331848 0.192047
0.000000 0.332886 0.193115
0.000000 0.334137 0.194366
0.041199 0.335571 0.195557
0.099152 0.337097 0.197174
0.140076 0.338745 0.198669
0.174072 0.340637 0.200409
0.204865 0.342590 0.202393
0.233185 0.344818 0.204468
0.260071 0.347107 0.206787
0.285828 0.349548 0.209045
0.310730 0.352203 0.211639
0.334900 0.355042 0.214203
0.358612 0.358002 0.216858
0.381989 0.361115 0.219757
0.404938 0.364349 0.222839
0.427643 0.367706 0.225983
0.449951 0.371399 0.229248
0.472229 0.375092 0.232574
0.494293 0.378937 0.236145
0.516144 0.382904 0.239807
0.537872 0.387054 0.243500
0.559509 0.391327 0.247345
0.580933 0.395782 0.251343
0.000000 0.352020 0.203552
0.000000 0.352295 0.203552
0.000000 0.352509 0.203888
0.000000 0.352753 0.204071
0.000000 0.353241 0.204498
0.000000 0.353699 0.205017
0.000000 0.354279 0.205566
0.000000 0.355072 0.206360
0.000000 0.355927 0.207214
0.000000 0.356903 0.208191
0.000000 0.358002 0.209320
0.000000 0.359283 0.210449
0.061371 0.360687 0.211731
0.115051 0.362244 0.213318
0.154724 0.363953 0.214935
0.188904 0.365784 0.216766
0.219452 0.367798 0.218689
0.247894 0.369995 0.220825
0.275177 0.372223 0.222961
0.301117 0.374695 0.225159
0.326080 0.377319 0.227753
0.350555 0.380066 0.230194
0.374451 0.382935 0.232941
0.398010 0.385956 0.235840
0.421051 0.389160 0.238770
0.443878 0.392548 0.241852
0.466583 0.395935 0.244995
0.488800 0.399628 0.248352
0.511047 0.403351 0.251831
0.532990 0.407196 0.255341
0.554840 0.411285 0.258942
0.576569 0.415436 0.262726
0.000000 0.376495 0.218903
0.000000 0.376678 0.219208
0.000000 0.376892 0.219330
0.000000 0.377136 0.219482
0.000000 0.377502 0.219788
0.000000 0.377899 0.220276
0.000000 0.378510 0.220886
0.000000 0.379211 0.221619
0.000000 0.379944 0.222412
0.000000 0.380951 0.223297
0.000000 0.381989 0.224213
0.000000 0.383148 0.225372
0.000000 0.384460 0.226776
0.079437 0.385925 0.228058
0.130432 0.387482 0.229523
0.169647 0.389130 0.231171
0.203430 0.391052 0.233032
0.234039 0.393066 0.235016
0.262817 0.395172 0.237000
0.290100 0.397369 0.239166
0.316315 0.399780 0.241486
0.341583 0.402344 0.243805
0.366119 0.405121 0.246429
0.390167 0.407990 0.249054
0.413879 0.410950 0.251831
0.437225 0.414032 0.254761
0.460144 0.417297 0.257690
0.482910 0.420654 0.260864
0.505310 0.424255 0.264160
0.527679 0.427856 0.267456
0.549744 0.431671 0.270905
0.571808 0.435547 0.274506
0.000000 0.400848 0.234528
0.000000 0.401031 0.234528
0.000000 0.401215 0.234833
0.000000 0.401428 0.234985
0.000000 0.401733 0.235352
0.000000 0.402222 0.235779
0.000000 0.402740 0.236237
0.000000 0.403351 0.236938
0.000000 0.404114 0.237671
0.000000 0.404968 0.238495
0.000000 0.405945 0.239441
0.000000 0.407013 0.240417
0.000000 0.408234 0.241516
0.018585 0.409576 0.242920
0.097351 0.411041 0.244293
0.145447 0.412659 0.245880
0.184265 0.414337 0.247498
0.217926 0.416260 0.249237
0.248749 0.418213 0.251282
0.277557 0.420349 0.253204
0.305054 0.422577 0.255310
0.331299 0.424988 0.257629
0.356812 0.427490 0.260040
0.381531 0.430206 0.262573
0.405853 0.432953 0.265198
0.429749 0.435852 0.267914
0.453156 0.438904 0.270721
0.476318 0.442108 0.273712
0.499115 0.445465 0.276825
0.521790 0.448853 0.279968
0.544250 0.452393 0.283234
0.566498 0.456085 0.286652
0.000000 0.425293 0.249908
0.000000 0.425354 0.249939
0.000000 0.425568 0.250183
0.000000 0.425781 0.250336
0.000000 0.426056 0.250702
0.000000 0.426483 0.251099
0.000000 0.427002 0.251556
0.000000 0.427551 0.252197
0.000000 0.428284 0.252869
0.000000 0.429016 0.253662
0.000000 0.429932 0.254547
0.000000 0.430939 0.255463
0.000000 0.432129 0.256653
0.000000 0.433350 0.257751
0.044464 0.434692 0.259064
0.114410 0.436218 0.260559
0.161041 0.437805 0.262115
0.198914 0.439545 0.263855
0.232635 0.441406 0.265594
0.263458 0.443390 0.267548
0.292297 0.445526 0.269531
0.320038 0.447723 0.271545
0.346497 0.450104 0.273834
0.372070 0.452637 0.276245
0.397095 0.455200 0.278687
0.421600 0.457916 0.281281
0.445465 0.460876 0.283905
0.469177 0.463806 0.286743
0.492371 0.466980 0.289703
0.515381 0.470245 0.292664
0.538086 0.473633 0.295746
0.560699 0.477051 0.299042
0.000000 0.449615 0.265350
0.000000 0.449768 0.265503
0.000000 0.449860 0.265625
0.000000 0.450134 0.265808
0.000000 0.450439 0.266235
0.000000 0.450775 0.266602
0.000000 0.451233 0.266907
0.000000 0.451721 0.267426
0.000000 0.452393 0.268066
0.000000 0.453125 0.268829
0.000000 0.453979 0.269653
0.000000 0.454987 0.270599
0.000000 0.456024 0.271606
0.000000 0.457153 0.272675
0.000000 0.458435 0.273987
0.068085 0.459839 0.275299
0.131256 0.461304 0.276855
0.176025 0.462982 0.278381
0.213745 0.464722 0.279999
0.247253 0.466583 0.281860
0.278046 0.468597 0.283722
0.307068 0.470703 0.285767
0.334839 0.472931 0.287903
0.361511 0.475250 0.290039
0.387390 0.477692 0.292358
0.412384 0.480347 0.294861
0.437042 0.483032 0.297455
0.461212 0.485840 0.300140
0.484985 0.488770 0.302765
0.508423 0.491882 0.305634
0.531586 0.495026 0.308624
0.554382 0.498383 0.311646
0.000000 0.473969 0.280792
0.000000 0.474060 0.280945
0.000000 0.474243 0.281036
0.000000 0.474487 0.281281
0.000000 0.474731 0.281616
0.000000 0.475037 0.281982
0.000000 0.475464 0.282349
0.000000 0.476013 0.282928
0.000000 0.476593 0.283356
0.000000 0.477356 0.284027
0.000000 0.478058 0.284821
0.000000 0.479004 0.285767
0.000000 0.479980 0.286652
0.000000 0.481110 0.287781
0.000000 0.482330 0.288940
0.000000 0.483551 0.290253
0.089142 0.485016 0.291565
0.147034 0.486542 0.293030
0.191254 0.488129 0.294556
0.228455 0.489868 0.296326
0.261810 0.491791 0.298065
0.292694 0.493744 0.300018
0.321960 0.495880 0.302002
0.349792 0.498047 0.304169
0.376556 0.500397 0.306366
0.402496 0.502869 0.308563
0.427856 0.505402 0.311066
0.452637 0.508057 0.313599
0.476929 0.510834 0.316132
0.500793 0.513763 0.318939
0.524292 0.516785 0.321747
0.547607 0.519897 0.324554
0.000000 0.498352 0.296326
0.000000 0.498474 0.296387
0.000000 0.498627 0.296539
0.000000 0.498779 0.296722
0.000000 0.499023 0.296967
0.000000 0.499390 0.297272
0.000000 0.499756 0.297699
0.000000 0.500244 0.298157
0.000000 0.500824 0.298706
0.000000 0.501495 0.299377
0.000000 0.502228 0.300110
0.000000 0.503052 0.300842
0.000000 0.503998 0.301849
0.000000 0.505005 0.302765
0.000000 0.506165 0.303925
0.000000 0.507385 0.305084
0.009705 0.508728 0.306458
0.108002 0.510162 0.307831
0.163055 0.511719 0.309296
0.205872 0.513367 0.310944
0.242981 0.515106 0.312592
0.276398 0.516998 0.314301
0.307373 0.518951 0.316223
0.336731 0.521027 0.318237
0.364594 0.523224 0.320343
0.391571 0.525513 0.322601
0.417755 0.527924 0.324829
0.443146 0.530487 0.327179
0.467987 0.533173 0.329712
0.492462 0.535858 0.332275
0.516541 0.538727 0.335022
0.540253 0.541687 0.337738
0.000000 0.522736 0.311737
0.000000 0.522797 0.311829
0.000000 0.522949 0.312012
0.000000 0.523102 0.312134
0.000000 0.523376 0.312347
0.000000 0.523682 0.312653
0.000000 0.524078 0.313049
0.000000 0.524536 0.313568
0.000000 0.525024 0.314087
0.000000 0.525696 0.314667
0.000000 0.526398 0.315369
0.000000 0.527130 0.316132
0.000000 0.528015 0.317047
0.000000 0.528961 0.317902
0.000000 0.530060 0.318939
0.000000 0.531219 0.320099
0.000000 0.532471 0.321320
0.041809 0.533844 0.322693
0.126617 0.535278 0.324066
0.178864 0.536865 0.325562
0.221039 0.538513 0.327179
0.257690 0.540283 0.328827
0.291016 0.542145 0.330627
0.322144 0.544098 0.332550
0.351318 0.546265 0.334503
0.379456 0.548431 0.336609
0.406616 0.550690 0.338745
0.432800 0.553101 0.341034
0.458374 0.555603 0.343445
0.483429 0.558228 0.345856
0.508057 0.560913 0.348419
0.532227 0.563751 0.351105
0.000000 0.547089 0.327271
0.000000 0.547150 0.327362
0.000000 0.547302 0.327484
0.000000 0.547516 0.327637
0.000000 0.547729 0.327850
0.000000 0.547974 0.328125
0.000000 0.548340 0.328522
0.000000 0.548798 0.328918
0.000000 0.549286 0.329498
0.000000 0.549927 0.330048
0.000000 0.550507 0.330658
0.000000 0.551300 0.331360
0.000000 0.552094 0.332153
0.000000 0.553070 0.333099
0.000000 0.553986 0.334076
0.000000 0.555115 0.335114
0.000000 0.556366 0.336182
0.000000 0.557617 0.337494
0.070374 0.558990 0.338928
0.144531 0.560425 0.340210
0.194519 0.562042 0.341766
0.235809 0.563721 0.343414
0.272125 0.565521 0.345062
0.305603 0.567352 0.346985
0.336670 0.569336 0.348785
0.366028 0.571411 0.350830
0.394287 0.573578 0.352844
0.421539 0.575867 0.355072
0.447937 0.578217 0.357361
0.473663 0.580719 0.359650
0.498779 0.583313 0.362091
0.523499 0.585999 0.364624
0.000000 0.571472 0.342682
0.000000 0.571594 0.342865
0.000000 0.571686 0.342957
0.000000 0.571869 0.343018
0.000000 0.572083 0.343353
0.000000 0.572296 0.343628
0.000000 0.572662 0.343842
0.000000 0.573029 0.344299
0.000000 0.573547 0.344757
0.000000 0.574097 0.345306
0.000000 0.574677 0.345886
0.000000 0.575470 0.346558
0.000000 0.576202 0.347412
0.000000 0.577057 0.348206
0.000000 0.578003 0.349121
0.000000 0.579071 0.350098
0.000000 0.580200 0.351257
0.000000 0.581390 0.352478
0.000000 0.582733 0.353699
0.095001 0.584106 0.355072
0.161316 0.585632 0.356537
0.209839 0.587219 0.358124
0.250488 0.588928 0.359680
0.286957 0.590668 0.361359
0.320251 0.592529 0.363159
0.351349 0.594513 0.365051
0.380798 0.596588 0.367096
0.409149 0.598755 0.369141
0.436462 0.601013 0.371246
0.463013 0.603394 0.373474
0.488800 0.605835 0.375793
0.514130 0.608429 0.378235
0.000000 0.595825 0.358276
0.000000 0.595886 0.358276
0.000000 0.596008 0.358429
0.000000 0.596191 0.358521
0.000000 0.596405 0.358765
0.000000 0.596619 0.359039
0.000000 0.596985 0.359314
0.000000 0.597351 0.359741
0.000000 0.597778 0.360168
0.000000 0.598358 0.360687
0.000000 0.598938 0.361267
0.000000 0.599579 0.361908
0.000000 0.600311 0.362579
0.000000 0.601166 0.363403
0.000000 0.602081 0.364288
0.000000 0.603027 0.365295
0.000000 0.604126 0.366272
0.000000 0.605286 0.367401
0.000000 0.606476 0.368683
0.000000 0.607819 0.369904
0.116333 0.609253 0.371246
0.178131 0.610779 0.372742
0.225464 0.612366 0.374298
0.265533 0.614105 0.375946
0.301575 0.615845 0.377655
0.334717 0.617737 0.379456
0.365936 0.619690 0.381317
0.395569 0.621735 0.383301
0.423981 0.623901 0.385376
0.451416 0.626160 0.387512
0.477997 0.628510 0.389709
0.503998 0.630981 0.392059
0.000000 0.620239 0.373627
0.000000 0.620300 0.373810
0.000000 0.620392 0.373810
0.000000 0.620544 0.374054
0.000000 0.620728 0.374237
0.000000 0.620972 0.374481
0.000000 0.621307 0.374786
0.000000 0.621643 0.375031
0.000000 0.622101 0.375488
0.000000 0.622559 0.376007
0.000000 0.623138 0.376526
0.000000 0.623749 0.377197
0.000000 0.624512 0.377899
0.000000 0.625275 0.378662
0.000000 0.626129 0.379425
0.000000 0.627075 0.380432
0.000000 0.628082 0.381378
0.000000 0.629181 0.382416
0.000000 0.630371 0.383545
0.000000 0.631653 0.384827
0.033173 0.632996 0.386139
0.135925 0.634460 0.387512
0.194733 0.635925 0.389008
0.240631 0.637573 0.390533
0.280426 0.639252 0.392212
0.316193 0.641052 0.393890
0.349365 0.642914 0.395752
0.380615 0.644867 0.397614
0.410217 0.646973 0.399536
0.438782 0.649078 0.401642
0.466248 0.651337 0.403809
0.493042 0.653656 0.405945
0.000000 0.644562 0.389130
0.000000 0.644684 0.389252
0.000000 0.644775 0.389282
0.000000 0.644897 0.389465
0.000000 0.645081 0.389648
0.000000 0.645294 0.389862
0.000000 0.645599 0.390167
0.000000 0.645966 0.390472
0.000000 0.646362 0.390869
0.000000 0.646790 0.391327
0.000000 0.647400 0.391876
0.000000 0.647980 0.392517
0.000000 0.648682 0.393127
0.000000 0.649353 0.393921
0.000000 0.650177 0.394653
0.000000 0.651123 0.395599
0.000000 0.652100 0.396454
0.000000 0.653107 0.397522
