projects/GroupAssignment2CBS/res/luts/cool.CUBE
#Created by: Adobe Photoshop Export Color Lookup Plugin
TITLE "sample.png"
#LUT size
LUT_3D_SIZE 8
#data domain
#LUT data points
DOMAIN_MIN 0.000000 0.000000 0.000000
DOMAIN_MAX 0.903226 0.903226 0.903226
0.000000 0.000000 0.000000
0.060211 0.008484 0.003937
0.141937 0.029022 0.015320
0.222839 0.062866 0.035309
0.303680 0.097809 0.061462
0.384705 0.132202 0.087555
0.465759 0.166779 0.113678
0.546844 0.201141 0.139984
0.000000 0.084015 0.033081
0.028717 0.088898 0.038086
0.128510 0.099823 0.048218
0.214783 0.117432 0.064117
0.298248 0.139923 0.083221
0.380676 0.166016 0.104858
0.462585 0.194458 0.127899
0.544250 0.224274 0.151642
0.000000 0.181427 0.095276
0.000000 0.183777 0.097290
0.086700 0.189392 0.102936
0.192993 0.199127 0.112091
0.283569 0.213074 0.125000
0.369873 0.230560 0.140503
0.454224 0.251038 0.158356
0.537384 0.274261 0.178131
0.000000 0.278961 0.157104
0.000000 0.280396 0.158508
0.000000 0.284027 0.161896
0.144897 0.290283 0.167999
0.255096 0.299438 0.176605
0.349731 0.311401 0.187958
0.438721 0.326263 0.201416
0.524902 0.343628 0.217041
0.000000 0.376495 0.218903
0.000000 0.377502 0.219788
0.000000 0.379944 0.222412
0.000000 0.384460 0.226776
0.203430 0.391052 0.233032
0.316315 0.399780 0.241486
0.413879 0.410950 0.251831
0.505310 0.424255 0.264160
0.000000 0.473969 0.280792
0.000000 0.474731 0.281616
0.000000 0.476593 0.283356
0.000000 0.479980 0.286652
0.089142 0.485016 0.291565
0.261810 0.491791 0.298065
0.376556 0.500397 0.306366
0.476929 0.510834 0.316132
0.000000 0.571472 0.342682
0.000000 0.572083 0.343353
0.000000 0.573547 0.344757
0.000000 0.576202 0.347412
0.000000 0.580200 0.351257
0.161316 0.585632 0.356537
0.320251 0.592529 0.363159
0.436462 0.601013 0.371246
0.000000 0.668976 0.404602
0.000000 0.669403 0.405060
0.000000 0.670654 0.406342
0.000000 0.672852 0.408386
0.000000 0.676086 0.411652
0.000000 0.680573 0.416016
0.226898 0.686249 0.421448
0.378510 0.693298 0.428284
0.000000 0.008240 0.177307
0.000000 0.016937 0.178680
0.102081 0.037842 0.181549
0.200348 0.069061 0.187012
0.288422 0.102142 0.194824
0.373413 0.135620 0.204926
0.456848 0.169373 0.217255
0.539581 0.203278 0.231720
0.000000 0.088959 0.186676
0.000000 0.093567 0.187744
0.082489 0.104431 0.190674
0.191254 0.121063 0.195740
0.282837 0.142914 0.203125
0.369293 0.168518 0.212891
0.453583 0.196655 0.224823
0.536926 0.226196 0.238739
0.000000 0.184021 0.208344
0.000000 0.186035 0.209290
0.007446 0.191833 0.211914
0.165863 0.201447 0.216553
0.267120 0.214996 0.223267
0.357941 0.232391 0.231995
0.445038 0.252716 0.242798
0.529968 0.275787 0.255615
0.000000 0.280396 0.242035
0.000000 0.281860 0.242889
0.000000 0.285461 0.245026
0.106140 0.291718 0.248962
0.236328 0.300720 0.254639
0.336823 0.312805 0.262299
0.429077 0.327484 0.271881
0.517303 0.344849 0.283051
0.000000 0.377563 0.284424
0.000000 0.378479 0.285248
0.000000 0.380951 0.287018
0.000000 0.385468 0.290283
0.178284 0.392029 0.295044
0.301666 0.400848 0.301514
0.403503 0.411865 0.309662
0.497406 0.425110 0.319366
0.000000 0.474762 0.332947
0.000000 0.475494 0.333496
0.000000 0.477325 0.335052
0.000000 0.480682 0.337646
0.012573 0.485748 0.341675
0.243408 0.492523 0.347076
0.364868 0.501129 0.354034
0.468262 0.511536 0.362396
0.000000 0.572083 0.385071
0.000000 0.572693 0.385620
0.000000 0.574127 0.386871
0.000000 0.576782 0.389191
0.000000 0.580811 0.392517
0.128082 0.586182 0.397156
0.305939 0.593109 0.403015
0.426788 0.601563 0.410126
0.000000 0.669464 0.439941
0.000000 0.669891 0.440338
0.000000 0.671143 0.441467
0.000000 0.673309 0.443420
0.000000 0.676575 0.446289
0.000000 0.681030 0.450226
0.204926 0.686737 0.455170
0.366943 0.693787 0.461395
0.000000 0.031158 0.340240
0.000000 0.039093 0.340790
0.000000 0.057983 0.342285
0.122986 0.083435 0.344940
0.244080 0.112366 0.348816
0.342010 0.143677 0.354126
0.432953 0.175720 0.360809
0.520355 0.208710 0.368988
0.000000 0.100525 0.344666
0.000000 0.104492 0.345306
0.000000 0.114441 0.346649
0.107971 0.130219 0.349274
0.236877 0.150818 0.353180
0.337372 0.175232 0.358337
0.429474 0.202087 0.365051
0.517609 0.231018 0.372986
0.000000 0.189850 0.355957
0.000000 0.191895 0.356476
0.000000 0.197418 0.357910
0.054382 0.206787 0.360413
0.217499 0.220032 0.364105
0.324860 0.236938 0.369141
0.420288 0.256836 0.375519
0.510254 0.279572 0.383301
0.000000 0.284271 0.374969
0.000000 0.285614 0.375549
0.000000 0.289063 0.376862
0.000000 0.295197 0.379211
0.176941 0.304169 0.382690
0.300934 0.316040 0.387451
0.403076 0.330627 0.393372
0.496918 0.347778 0.400818
0.000000 0.380188 0.401703
0.000000 0.381073 0.402252
0.000000 0.383575 0.403381
0.000000 0.387970 0.405609
0.083282 0.394470 0.408783
0.259766 0.403259 0.413177
0.375366 0.414185 0.418671
0.475952 0.427368 0.425568
0.000000 0.476746 0.435211
0.000000 0.477448 0.435608
0.000000 0.479370 0.436768
0.000000 0.482697 0.438629
0.000000 0.487671 0.441528
0.186737 0.494446 0.445526
0.332672 0.502930 0.450684
0.444946 0.513397 0.456909
0.000000 0.573608 0.474213
0.000000 0.574219 0.474670
0.000000 0.575745 0.475616
0.000000 0.578369 0.477386
0.000000 0.582306 0.480011
0.000000 0.587708 0.483612
0.264893 0.594604 0.488220
0.400574 0.603058 0.493835
0.000000 0.670715 0.517822
0.000000 0.671204 0.518127
0.000000 0.672394 0.519043
0.000000 0.674591 0.520599
0.000000 0.677887 0.523010
0.000000 0.682281 0.526215
0.130920 0.687988 0.530304
0.334900 0.695007 0.535400
0.000000 0.065155 0.503143
0.000000 0.071320 0.503448
0.000000 0.084259 0.504425
0.000000 0.104401 0.506012
0.124451 0.128998 0.508453
0.275299 0.156952 0.511780
0.385345 0.186737 0.516113
0.483459 0.217926 0.521393
0.000000 0.118958 0.505890
0.000000 0.122192 0.506226
0.000000 0.130737 0.507172
0.000000 0.144867 0.508728
0.109497 0.163513 0.511200
0.268982 0.186279 0.514557
0.381348 0.211639 0.518768
0.480438 0.239258 0.524017
0.000000 0.200012 0.512939
0.000000 0.202118 0.513306
0.000000 0.207214 0.514191
0.000000 0.216095 0.515778
0.057220 0.228668 0.518158
0.252472 0.244934 0.521423
0.370575 0.264313 0.525635
0.472473 0.286163 0.530731
0.000000 0.290741 0.525330
0.000000 0.292145 0.525635
0.000000 0.295471 0.526520
0.000000 0.301453 0.528046
0.000000 0.310181 0.530334
0.219238 0.321808 0.533508
0.350494 0.336029 0.537598
0.457733 0.352875 0.542603
0.000000 0.384827 0.543243
0.000000 0.385773 0.543549
0.000000 0.388184 0.544403
0.000000 0.392517 0.545837
0.000000 0.398926 0.548096
0.154633 0.407532 0.551086
0.316895 0.418427 0.555023
0.434235 0.431396 0.559845
0.000000 0.480225 0.566681
0.000000 0.480957 0.566986
0.000000 0.482849 0.567810
0.000000 0.486176 0.569214
0.000000 0.491089 0.571320
0.000000 0.497803 0.574219
0.262756 0.506287 0.577850
0.399292 0.516571 0.582458
0.000000 0.576477 0.595367
0.000000 0.576965 0.595642
0.000000 0.578491 0.596375
0.000000 0.581146 0.597656
0.000000 0.585052 0.599731
0.000000 0.590454 0.602417
0.163147 0.597290 0.605865
0.347443 0.605682 0.610168
0.000000 0.673004 0.628693
0.000000 0.673492 0.628998
0.000000 0.674652 0.629639
0.000000 0.676819 0.630890
0.000000 0.680115 0.632721
0.000000 0.684540 0.635254
0.000000 0.690216 0.638550
0.265900 0.697174 0.642517
0.000000 0.100586 0.666077
0.000000 0.104736 0.666290
0.000000 0.114349 0.666962
0.000000 0.130096 0.668060
0.000000 0.150726 0.669800
0.099091 0.175140 0.672119
0.295685 0.202087 0.675201
0.420135 0.230957 0.678925
0.000000 0.142212 0.667999
0.000000 0.144836 0.668213
0.000000 0.152191 0.668884
0.000000 0.164337 0.670013
0.000000 0.181000 0.671753
0.079956 0.201569 0.674072
0.290161 0.225128 0.677063
0.416412 0.251129 0.680786
0.000000 0.214355 0.672943
0.000000 0.216248 0.673218
0.000000 0.220947 0.673798
0.000000 0.229218 0.674957
0.000000 0.241241 0.676666
0.002106 0.256531 0.678955
0.274963 0.274933 0.681976
0.406860 0.295898 0.685638
0.000000 0.300293 0.681732
0.000000 0.301575 0.681946
0.000000 0.304810 0.682617
0.000000 0.310577 0.683685
0.000000 0.319153 0.685394
0.000000 0.330322 0.687653
0.245422 0.344116 0.690582
0.388947 0.360504 0.694244
0.000000 0.391663 0.694702
0.000000 0.392639 0.694916
0.000000 0.394989 0.695557
0.000000 0.399231 0.696625
0.000000 0.405548 0.698273
0.000000 0.413971 0.700470
0.190643 0.424622 0.703339
0.359985 0.437347 0.706909
0.000000 0.485504 0.712006
0.000000 0.486237 0.712189
0.000000 0.488037 0.712799
0.000000 0.491302 0.713867
0.000000 0.496155 0.715454
0.000000 0.502777 0.717621
0.055115 0.511200 0.720367
0.314575 0.521362 0.723816
0.000000 0.580627 0.733612
0.000000 0.581146 0.733826
0.000000 0.582642 0.734406
0.000000 0.585236 0.735382
0.000000 0.589142 0.736938
0.000000 0.594482 0.739014
0.000000 0.601257 0.741669
0.240967 0.609589 0.745026
0.000000 0.676392 0.759369
0.000000 0.676880 0.759613
0.000000 0.678101 0.760132
0.000000 0.680206 0.761108
0.000000 0.683472 0.762543
0.000000 0.687897 0.764557
0.000000 0.693512 0.767120
0.067993 0.700439 0.770294
0.000000 0.135590 0.828949
0.000000 0.138733 0.829102
0.000000 0.146423 0.829620
0.000000 0.159027 0.830444
0.000000 0.176086 0.831787
0.000000 0.197357 0.833557
0.002991 0.221313 0.835815
0.306366 0.247772 0.838684
0.000000 0.168823 0.830383
0.000000 0.171234 0.830597
0.000000 0.177490 0.831055
0.000000 0.187927 0.831940
0.000000 0.202515 0.833221
0.000000 0.220947 0.834991
0.000000 0.242340 0.837250
0.301056 0.266418 0.840088
0.000000 0.232544 0.834137
0.000000 0.234070 0.834320
0.000000 0.238525 0.834808
0.000000 0.246155 0.835663
0.000000 0.257294 0.836914
0.000000 0.271454 0.838684
0.000000 0.288666 0.840973
0.286682 0.308655 0.843781
0.000000 0.312897 0.840790
0.000000 0.314117 0.840973
0.000000 0.317200 0.841461
0.000000 0.322723 0.842316
0.000000 0.330780 0.843567
0.000000 0.341553 0.845306
0.000000 0.354950 0.847534
0.258545 0.370667 0.850342
0.000000 0.400909 0.850708
0.000000 0.401703 0.850861
0.000000 0.404083 0.851349
0.000000 0.408264 0.852203
0.000000 0.414337 0.853424
0.000000 0.422607 0.855164
0.000000 0.432922 0.857361
0.207611 0.445435 0.860107
0.000000 0.492584 0.864044
0.000000 0.493256 0.864258
0.000000 0.495117 0.864655
0.000000 0.498322 0.865479
0.000000 0.503082 0.866730
0.000000 0.509583 0.868408
0.000000 0.517792 0.870605
0.097778 0.527863 0.873260
0.000000 0.586243 0.880951
0.000000 0.586823 0.881134
0.000000 0.588287 0.881561
0.000000 0.590881 0.882385
0.000000 0.594696 0.883575
0.000000 0.599945 0.885223
0.000000 0.606689 0.887299
0.000000 0.614929 0.889923
0.000000 0.681061 0.901398
0.000000 0.681549 0.901550
0.000000 0.682739 0.902008
0.000000 0.684875 0.902740
0.000000 0.688080 0.903900
0.000000 0.692444 0.905487
0.000000 0.698029 0.907562
0.000000 0.704926 0.910126
0.000000 0.170929 0.991821
0.000000 0.173309 0.991943
0.000000 0.179260 0.992371
0.000000 0.189606 0.993042
0.000000 0.204254 0.994049
0.000000 0.222351 0.995453
0.000000 0.243805 0.997253
0.000000 0.267609 0.999512
0.000000 0.197968 0.992981
0.000000 0.200012 0.993134
0.000000 0.205139 0.993500
0.000000 0.214203 0.994171
0.000000 0.226898 0.995178
0.000000 0.243317 0.996582
0.000000 0.262817 0.998413
0.000000 0.284790 1.000000
0.000000 0.253723 0.995941
0.000000 0.255280 0.996063
0.000000 0.259308 0.996460
0.000000 0.266327 0.997131
0.000000 0.276337 0.998169
0.000000 0.289490 0.999573
0.000000 0.305634 1.000000
0.000000 0.324371 1.000000
0.000000 0.328217 1.000000
0.000000 0.329376 1.000000
0.000000 0.332458 1.000000
0.000000 0.337555 1.000000
0.000000 0.345276 1.000000
0.000000 0.355560 1.000000
0.000000 0.368225 1.000000
0.000000 0.383301 1.000000
0.000000 0.412445 1.000000
0.000000 0.413300 1.000000
0.000000 0.415588 1.000000
0.000000 0.419556 1.000000
0.000000 0.425476 1.000000
0.000000 0.433380 1.000000
0.000000 0.443512 1.000000
0.000000 0.455627 1.000000
0.000000 0.501587 1.000000
0.000000 0.502289 1.000000
0.000000 0.503998 1.000000
0.000000 0.507111 1.000000
0.000000 0.511871 1.000000
0.000000 0.518188 1.000000
0.000000 0.526276 1.000000
0.000000 0.536072 1.000000
0.000000 0.593506 1.000000
0.000000 0.594055 1.000000
0.000000 0.595459 1.000000
0.000000 0.598022 1.000000
0.000000 0.601776 1.000000
0.000000 0.606995 1.000000
0.000000 0.613617 1.000000
0.000000 0.621704 1.000000
0.000000 0.687042 1.000000
0.000000 0.687500 1.000000
0.000000 0.688690 1.000000
0.000000 0.690796 1.000000
0.000000 0.693970 1.000000
0.000000 0.698273 1.000000
0.000000 0.703796 1.000000
0.000000 0.710632 1.000000
0.000000 0.206085 1.000000
0.000000 0.208008 1.000000
0.000000 0.212921 1.000000
0.000000 0.221558 1.000000
0.000000 0.233856 1.000000
0.000000 0.249695 1.000000
0.000000 0.268738 1.000000
0.000000 0.290222 1.000000
0.000000 0.228668 1.000000
0.000000 0.230316 1.000000
0.000000 0.234802 1.000000
0.000000 0.242615 1.000000
0.000000 0.253845 1.000000
0.000000 0.268280 1.000000
0.000000 0.285706 1.000000
0.000000 0.305939 1.000000
0.000000 0.277618 1.000000
0.000000 0.279083 1.000000
0.000000 0.282684 1.000000
0.000000 0.289032 1.000000
0.000000 0.298126 1.000000
0.000000 0.310242 1.000000
0.000000 0.325134 1.000000
0.000000 0.342560 1.000000
0.000000 0.346252 1.000000
0.000000 0.347382 1.000000
0.000000 0.350067 1.000000
0.000000 0.355133 1.000000
0.000000 0.362274 1.000000
0.000000 0.371918 1.000000
0.000000 0.384033 1.000000
0.000000 0.398468 1.000000
0.000000 0.426239 1.000000
0.000000 0.427094 1.000000
0.000000 0.429291 1.000000
0.000000 0.433014 1.000000
0.000000 0.438782 1.000000
0.000000 0.446472 1.000000
0.000000 0.456177 1.000000
0.000000 0.467834 1.000000
0.000000 0.512451 1.000000
0.000000 0.513153 1.000000
0.000000 0.514923 1.000000
0.000000 0.517914 1.000000
0.000000 0.522430 1.000000
0.000000 0.528656 1.000000
0.000000 0.536560 1.000000
0.000000 0.546112 1.000000
0.000000 0.602325 1.000000
0.000000 0.602875 1.000000
0.000000 0.604248 1.000000
0.000000 0.606781 1.000000
0.000000 0.610535 1.000000
0.000000 0.615601 1.000000
0.000000 0.622101 1.000000
0.000000 0.630035 1.000000
0.000000 0.694366 1.000000
0.000000 0.694824 1.000000
0.000000 0.696014 1.000000
0.000000 0.698090 1.000000
0.000000 0.701202 1.000000
0.000000 0.705475 1.000000
0.000000 0.710938 1.000000
0.000000 0.717651 1.000000
