projects/GroupAssignment2CBS/res/luts/grayscale.CUBE
#Created by: Adobe Photoshop Export Color Lookup Plugin
TITLE "sample.png"
#LUT size
LUT_3D_SIZE 32
#data domain
DOMAIN_MIN 0.0 0.0 0.0
DOMAIN_MAX 1.0 1.0 1.0
#LUT data points
0.000000 0.000000 0.000000
0.012909 0.012909 0.012909
0.025787 0.025787 0.025787
0.038696 0.038696 0.038696
0.051605 0.051605 0.051605
0.064484 0.064484 0.064484
0.077393 0.077393 0.077393
0.090302 0.090302 0.090302
0.103210 0.103210 0.103210
0.116089 0.116089 0.116089
0.128998 0.128998 0.128998
0.141907 0.141907 0.141907
0.154785 0.154785 0.154785
0.167694 0.167694 0.167694
0.180603 0.180603 0.180603
0.193481 0.193481 0.193481
0.206421 0.206421 0.206421
0.219299 0.219299 0.219299
0.232208 0.232208 0.232208
0.245117 0.245117 0.245117
0.257996 0.257996 0.257996
0.270905 0.270905 0.270905
0.283813 0.283813 0.283813
0.296692 0.296692 0.296692
0.309601 0.309601 0.309601
0.322510 0.322510 0.322510
0.335419 0.335419 0.335419
0.348297 0.348297 0.348297
0.361206 0.361206 0.361206
0.374115 0.374115 0.374115
0.386993 0.386993 0.386993
0.399902 0.399902 0.399902
0.012909 0.012909 0.012909
0.019348 0.019348 0.019348
0.032257 0.032257 0.032257
0.045135 0.045135 0.045135
0.058044 0.058044 0.058044
0.070953 0.070953 0.070953
0.083862 0.083862 0.083862
0.096741 0.096741 0.096741
0.109650 0.109650 0.109650
0.122559 0.122559 0.122559
0.135437 0.135437 0.135437
0.148346 0.148346 0.148346
0.161255 0.161255 0.161255
0.174133 0.174133 0.174133
0.187042 0.187042 0.187042
0.199951 0.199951 0.199951
0.212860 0.212860 0.212860
0.225769 0.225769 0.225769
0.238647 0.238647 0.238647
0.251556 0.251556 0.251556
0.264465 0.264465 0.264465
0.277344 0.277344 0.277344
0.290253 0.290253 0.290253
0.303162 0.303162 0.303162
0.316040 0.316040 0.316040
0.328949 0.328949 0.328949
0.341858 0.341858 0.341858
0.354767 0.354767 0.354767
0.367645 0.367645 0.367645
0.380554 0.380554 0.380554
0.393463 0.393463 0.393463
0.406342 0.406342 0.406342
0.025787 0.025787 0.025787
0.032257 0.032257 0.032257
0.038696 0.038696 0.038696
0.051605 0.051605 0.051605
0.064484 0.064484 0.064484
0.077393 0.077393 0.077393
0.090302 0.090302 0.090302
0.103210 0.103210 0.103210
0.116089 0.116089 0.116089
0.128998 0.128998 0.128998
0.141907 0.141907 0.141907
0.154785 0.154785 0.154785
0.167694 0.167694 0.167694
0.180603 0.180603 0.180603
0.193481 0.193481 0.193481
0.206390 0.206390 0.206390
0.219299 0.219299 0.219299
0.232208 0.232208 0.232208
0.245117 0.245117 0.245117
0.257996 0.257996 0.257996
0.270905 0.270905 0.270905
0.283813 0.283813 0.283813
0.296692 0.296692 0.296692
0.309601 0.309601 0.309601
0.322510 0.322510 0.322510
0.335419 0.335419 0.335419
0.348297 0.348297 0.348297
0.361206 0.361206 0.361206
0.374115 0.374115 0.374115
0.386993 0.386993 0.386993
0.399902 0.399902 0.399902
0.412811 0.412811 0.412811
0.038696 0.038696 0.038696
0.045135 0.045135 0.045135
0.051605 0.051605 0.051605
0.058044 0.058044 0.058044
0.070953 0.070953 0.070953
0.083862 0.083862 0.083862
0.096741 0.096741 0.096741
0.109650 0.109650 0.109650
0.122559 0.122559 0.122559
0.135437 0.135437 0.135437
0.148346 0.148346 0.148346
0.161255 0.161255 0.161255
0.174133 0.174133 0.174133
0.187042 0.187042 0.187042
0.199951 0.199951 0.199951
0.212830 0.212830 0.212830
0.225769 0.225769 0.225769
0.238647 0.238647 0.238647
0.251556 0.251556 0.251556
0.264465 0.264465 0.264465
0.277344 0.277344 0.277344
0.290253 0.290253 0.290253
0.303162 0.303162 0.303162
0.316040 0.316040 0.316040
0.328949 0.328949 0.328949
0.341858 0.341858 0.341858
0.354767 0.354767 0.354767
0.367645 0.367645 0.367645
0.380554 0.380554 0.380554
0.393463 0.393463 0.393463
0.406342 0.406342 0.406342
0.419250 0.419250 0.419250
0.051605 0.051605 0.051605
0.058044 0.058044 0.058044
0.064484 0.064484 0.064484
0.070953 0.070953 0.070953
0.077393 0.077393 0.077393
0.090302 0.090302 0.090302
0.103210 0.103210 0.103210
0.116089 0.116089 0.116089
0.128998 0.128998 0.128998
0.141907 0.141907 0.141907
0.154785 0.154785 0.154785
0.167694 0.167694 0.167694
0.180603 0.180603 0.180603
0.193481 0.193481 0.193481
0.206390 0.206390 0.206390
0.219299 0.219299 0.219299
0.232208 0.232208 0.232208
0.245117 0.245117 0.245117
0.257996 0.257996 0.257996
0.270905 0.270905 0.270905
0.283813 0.283813 0.283813
0.296692 0.296692 0.296692
0.309601 0.309601 0.309601
0.322510 0.322510 0.322510
0.335419 0.335419 0.335419
0.348297 0.348297 0.348297
0.361206 0.361206 0.361206
0.374115 0.374115 0.374115
0.386993 0.386993 0.386993
0.399902 0.399902 0.399902
0.412811 0.412811 0.412811
0.425690 0.425690 0.425690
0.064484 0.064484 0.064484
0.070953 0.070953 0.070953
0.077393 0.077393 0.077393
0.083862 0.083862 0.083862
0.090302 0.090302 0.090302
0.096741 0.096741 0.096741
0.109650 0.109650 0.109650
0.122559 0.122559 0.122559
0.135437 0.135437 0.135437
0.148346 0.148346 0.148346
0.161255 0.161255 0.161255
0.174133 0.174133 0.174133
0.187042 0.187042 0.187042
0.199951 0.199951 0.199951
0.212830 0.212830 0.212830
0.225739 0.225739 0.225739
0.238647 0.238647 0.238647
0.251556 0.251556 0.251556
0.264465 0.264465 0.264465
0.277344 0.277344 0.277344
0.290253 0.290253 0.290253
0.303162 0.303162 0.303162
0.316040 0.316040 0.316040
0.328949 0.328949 0.328949
0.341858 0.341858 0.341858
0.354767 0.354767 0.354767
0.367645 0.367645 0.367645
0.380554 0.380554 0.380554
0.393463 0.393463 0.393463
0.406342 0.406342 0.406342
0.419250 0.419250 0.419250
0.432159 0.432159 0.432159
0.077393 0.077393 0.077393
0.083862 0.083862 0.083862
0.090302 0.090302 0.090302
0.096741 0.096741 0.096741
0.103210 0.103210 0.103210
0.109650 0.109650 0.109650
0.116089 0.116089 0.116089
0.128998 0.128998 0.128998
0.141907 0.141907 0.141907
0.154785 0.154785 0.154785
0.167694 0.167694 0.167694
0.180603 0.180603 0.180603
0.193481 0.193481 0.193481
0.206390 0.206390 0.206390
0.219299 0.219299 0.219299
0.232208 0.232208 0.232208
0.245117 0.245117 0.245117
0.257996 0.257996 0.257996
0.270905 0.270905 0.270905
0.283813 0.283813 0.283813
0.296692 0.296692 0.296692
0.309601 0.309601 0.309601
0.322510 0.322510 0.322510
0.335419 0.335419 0.335419
0.348297 0.348297 0.348297
0.361206 0.361206 0.361206
0.374115 0.374115 0.374115
0.386993 0.386993 0.386993
0.399902 0.399902 0.399902
0.412811 0.412811 0.412811
0.425690 0.425690 0.425690
0.438599 0.438599 0.438599
0.090302 0.090302 0.090302
0.096741 0.096741 0.096741
0.103210 0.103210 0.103210
0.109650 0.109650 0.109650
0.116089 0.116089 0.116089
0.122559 0.122559 0.122559
0.128998 0.128998 0.128998
0.135437 0.135437 0.135437
0.148346 0.148346 0.148346
0.161255 0.161255 0.161255
0.174133 0.174133 0.174133
0.187042 0.187042 0.187042
0.199951 0.199951 0.199951
0.212830 0.212830 0.212830
0.225739 0.225739 0.225739
0.238647 0.238647 0.238647
0.251556 0.251556 0.251556
0.264465 0.264465 0.264465
0.277344 0.277344 0.277344
0.290253 0.290253 0.290253
0.303162 0.303162 0.303162
0.316040 0.316040 0.316040
0.328949 0.328949 0.328949
0.341858 0.341858 0.341858
0.354767 0.354767 0.354767
0.367645 0.367645 0.367645
0.380554 0.380554 0.380554
0.393463 0.393463 0.393463
0.406342 0.406342 0.406342
0.419250 0.419250 0.419250
0.432159 0.432159 0.432159
0.445038 0.445038 0.445038
0.103210 0.103210 0.103210
0.109650 0.109650 0.109650
0.116089 0.116089 0.116089
0.122559 0.122559 0.122559
0.128998 0.128998 0.128998
0.135437 0.135437 0.135437
0.141907 0.141907 0.141907
0.148346 0.148346 0.148346
0.154785 0.154785 0.154785
0.167694 0.167694 0.167694
0.180603 0.180603 0.180603
0.193481 0.193481 0.193481
0.206390 0.206390 0.206390
0.219299 0.219299 0.219299
0.232208 0.232208 0.232208
0.245087 0.245087 0.245087
0.257996 0.257996 0.257996
0.270905 0.270905 0.270905
0.283813 0.283813 0.283813
0.296692 0.296692 0.296692
0.309601 0.309601 0.309601
0.322510 0.322510 0.322510
0.335419 0.335419 0.335419
0.348297 0.348297 0.348297
0.361206 0.361206 0.361206
0.374115 0.374115 0.374115
0.386993 0.386993 0.386993
0.399902 0.399902 0.399902
0.412811 0.412811 0.412811
0.425690 0.425690 0.425690
0.438599 0.438599 0.438599
0.451508 0.451508 0.451508
0.116089 0.116089 0.116089
0.122559 0.122559 0.122559
0.128998 0.128998 0.128998
0.135437 0.135437 0.135437
0.141907 0.141907 0.141907
0.148346 0.148346 0.148346
0.154785 0.154785 0.154785
0.161255 0.161255 0.161255
0.167694 0.167694 0.167694
0.174133 0.174133 0.174133
0.187042 0.187042 0.187042
0.199951 0.199951 0.199951
0.212830 0.212830 0.212830
0.225739 0.225739 0.225739
0.238647 0.238647 0.238647
0.251556 0.251556 0.251556
0.264465 0.264465 0.264465
0.277344 0.277344 0.277344
0.290253 0.290253 0.290253
0.303162 0.303162 0.303162
0.316040 0.316040 0.316040
0.328949 0.328949 0.328949
0.341858 0.341858 0.341858
0.354767 0.354767 0.354767
0.367645 0.367645 0.367645
0.380554 0.380554 0.380554
0.393463 0.393463 0.393463
0.406342 0.406342 0.406342
0.419250 0.419250 0.419250
0.432159 0.432159 0.432159
0.445038 0.445038 0.445038
0.457947 0.457947 0.457947
0.128998 0.128998 0.128998
0.135437 0.135437 0.135437
0.141907 0.141907 0.141907
0.148346 0.148346 0.148346
0.154785 0.154785 0.154785
0.161255 0.161255 0.161255
0.167694 0.167694 0.167694
0.174133 0.174133 0.174133
0.180603 0.180603 0.180603
0.187042 0.187042 0.187042
0.193481 0.193481 0.193481
0.206390 0.206390 0.206390
0.219299 0.219299 0.219299
0.232208 0.232208 0.232208
0.245087 0.245087 0.245087
0.257996 0.257996 0.257996
0.270905 0.270905 0.270905
0.283813 0.283813 0.283813
0.296692 0.296692 0.296692
0.309601 0.309601 0.309601
0.322510 0.322510 0.322510
0.335419 0.335419 0.335419
0.348297 0.348297 0.348297
0.361206 0.361206 0.361206
0.374115 0.374115 0.374115
0.386993 0.386993 0.386993
0.399902 0.399902 0.399902
0.412811 0.412811 0.412811
0.425690 0.425690 0.425690
0.438599 0.438599 0.438599
0.451508 0.451508 0.451508
0.464386 0.464386 0.464386
0.141907 0.141907 0.141907
0.148346 0.148346 0.148346
0.154785 0.154785 0.154785
0.161255 0.161255 0.161255
0.167694 0.167694 0.167694
0.174133 0.174133 0.174133
0.180603 0.180603 0.180603
0.187042 0.187042 0.187042
0.193481 0.193481 0.193481
0.199951 0.199951 0.199951
0.206390 0.206390 0.206390
0.212830 0.212830 0.212830
0.225739 0.225739 0.225739
0.238647 0.238647 0.238647
0.251556 0.251556 0.251556
0.264435 0.264435 0.264435
0.277344 0.277344 0.277344
0.290253 0.290253 0.290253
0.303162 0.303162 0.303162
0.316040 0.316040 0.316040
0.328949 0.328949 0.328949
0.341858 0.341858 0.341858
0.354767 0.354767 0.354767
0.367645 0.367645 0.367645
0.380554 0.380554 0.380554
0.393463 0.393463 0.393463
0.406342 0.406342 0.406342
0.419250 0.419250 0.419250
0.432159 0.432159 0.432159
0.445038 0.445038 0.445038
0.457947 0.457947 0.457947
0.470856 0.470856 0.470856
0.154785 0.154785 0.154785
0.161255 0.161255 0.161255
0.167694 0.167694 0.167694
0.174133 0.174133 0.174133
0.180603 0.180603 0.180603
0.187042 0.187042 0.187042
0.193481 0.193481 0.193481
0.199951 0.199951 0.199951
0.206390 0.206390 0.206390
0.212830 0.212830 0.212830
0.219299 0.219299 0.219299
0.225739 0.225739 0.225739
0.232208 0.232208 0.232208
0.245087 0.245087 0.245087
0.257996 0.257996 0.257996
0.270905 0.270905 0.270905
0.283813 0.283813 0.283813
0.296692 0.296692 0.296692
0.309601 0.309601 0.309601
0.322510 0.322510 0.322510
0.335419 0.335419 0.335419
0.348297 0.348297 0.348297
0.361206 0.361206 0.361206
0.374115 0.374115 0.374115
0.386993 0.386993 0.386993
0.399902 0.399902 0.399902
0.412811 0.412811 0.412811
0.425690 0.425690 0.425690
0.438599 0.438599 0.438599
0.451508 0.451508 0.451508
0.464386 0.464386 0.464386
0.477295 0.477295 0.477295
0.167694 0.167694 0.167694
0.174133 0.174133 0.174133
0.180603 0.180603 0.180603
0.187042 0.187042 0.187042
0.193481 0.193481 0.193481
0.199951 0.199951 0.199951
0.206390 0.206390 0.206390
0.212830 0.212830 0.212830
0.219299 0.219299 0.219299
0.225739 0.225739 0.225739
0.232208 0.232208 0.232208
0.238647 0.238647 0.238647
0.245087 0.245087 0.245087
0.251556 0.251556 0.251556
0.264435 0.264435 0.264435
0.277344 0.277344 0.277344
0.290253 0.290253 0.290253
0.303162 0.303162 0.303162
0.316040 0.316040 0.316040
0.328949 0.328949 0.328949
0.341858 0.341858 0.341858
0.354767 0.354767 0.354767
0.367645 0.367645 0.367645
0.380554 0.380554 0.380554
0.393463 0.393463 0.393463
0.406342 0.406342 0.406342
0.419250 0.419250 0.419250
0.432159 0.432159 0.432159
0.445038 0.445038 0.445038
0.457947 0.457947 0.457947
0.470856 0.470856 0.470856
0.483765 0.483765 0.483765
0.180603 0.180603 0.180603
0.187042 0.187042 0.187042
0.193481 0.193481 0.193481
0.199951 0.199951 0.199951
0.206390 0.206390 0.206390
0.212830 0.212830 0.212830
0.219299 0.219299 0.219299
0.225739 0.225739 0.225739
0.232208 0.232208 0.232208
0.238647 0.238647 0.238647
0.245087 0.245087 0.245087
0.251556 0.251556 0.251556
0.257996 0.257996 0.257996
0.264435 0.264435 0.264435
0.270905 0.270905 0.270905
0.283783 0.283783 0.283783
0.296692 0.296692 0.296692
0.309601 0.309601 0.309601
0.322510 0.322510 0.322510
0.335419 0.335419 0.335419
0.348297 0.348297 0.348297
0.361206 0.361206 0.361206
0.374115 0.374115 0.374115
0.386993 0.386993 0.386993
0.399902 0.399902 0.399902
0.412811 0.412811 0.412811
0.425690 0.425690 0.425690
0.438599 0.438599 0.438599
0.451508 0.451508 0.451508
0.464386 0.464386 0.464386
0.477295 0.477295 0.477295
0.490204 0.490204 0.490204
0.193481 0.193481 0.193481
0.199951 0.199951 0.199951
0.206390 0.206390 0.206390
0.212830 0.212830 0.212830
0.219299 0.219299 0.219299
0.225739 0.225739 0.225739
0.232208 0.232208 0.232208
0.238647 0.238647 0.238647
0.245087 0.245087 0.245087
0.251556 0.251556 0.251556
0.257996 0.257996 0.257996
0.264435 0.264435 0.264435
0.270905 0.270905 0.270905
0.277344 0.277344 0.277344
0.283783 0.283783 0.283783
0.290253 0.290253 0.290253
0.303162 0.303162 0.303162
0.316040 0.316040 0.316040
0.328949 0.328949 0.328949
0.341858 0.341858 0.341858
0.354767 0.354767 0.354767
0.367645 0.367645 0.367645
0.380554 0.380554 0.380554
0.393463 0.393463 0.393463
0.406342 0.406342 0.406342
0.419250 0.419250 0.419250
0.432159 0.432159 0.432159
0.445038 0.445038 0.445038
0.457947 0.457947 0.457947
0.470856 0.470856 0.470856
0.483765 0.483765 0.483765
0.496643 0.496643 0.496643
0.206421 0.206421 0.206421
0.212860 0.212860 0.212860
0.219299 0.219299 0.219299
0.225769 0.225769 0.225769
0.232208 0.232208 0.232208
0.238647 0.238647 0.238647
0.245117 0.245117 0.245117
0.251556 0.251556 0.251556
0.257996 0.257996 0.257996
0.264465 0.264465 0.264465
0.270905 0.270905 0.270905
0.277344 0.277344 0.277344
0.283813 0.283813 0.283813
0.290253 0.290253 0.290253
0.296692 0.296692 0.296692
0.303162 0.303162 0.303162
0.309601 0.309601 0.309601
0.322510 0.322510 0.322510
0.335419 0.335419 0.335419
0.348297 0.348297 0.348297
0.361206 0.361206 0.361206
0.374115 0.374115 0.374115
0.387024 0.387024 0.387024
0.399902 0.399902 0.399902
0.412811 0.412811 0.412811
0.425720 0.425720 0.425720
0.438599 0.438599 0.438599
0.451508 0.451508 0.451508
0.464417 0.464417 0.464417
0.477295 0.477295 0.477295
0.490204 0.490204 0.490204
0.503113 0.503113 0.503113
0.219299 0.219299 0.219299
0.225769 0.225769 0.225769
0.232208 0.232208 0.232208
0.238647 0.238647 0.238647
0.245117 0.245117 0.245117
0.251556 0.251556 0.251556
0.257996 0.257996 0.257996
0.264465 0.264465 0.264465
0.270905 0.270905 0.270905
0.277344 0.277344 0.277344
0.283813 0.283813 0.283813
0.290253 0.290253 0.290253
0.296692 0.296692 0.296692
0.303162 0.303162 0.303162
0.309601 0.309601 0.309601
0.316040 0.316040 0.316040
0.322510 0.322510 0.322510
0.328949 0.328949 0.328949
0.341858 0.341858 0.341858
0.354767 0.354767 0.354767
0.367645 0.367645 0.367645
0.380554 0.380554 0.380554
0.393463 0.393463 0.393463
0.406372 0.406372 0.406372
0.419250 0.419250 0.419250
0.432159 0.432159 0.432159
0.445068 0.445068 0.445068
0.457947 0.457947 0.457947
0.470856 0.470856 0.470856
0.483765 0.483765 0.483765
0.496643 0.496643 0.496643
0.509552 0.509552 0.509552
0.232208 0.232208 0.232208
0.238647 0.238647 0.238647
0.245117 0.245117 0.245117
0.251556 0.251556 0.251556
0.257996 0.257996 0.257996
0.264465 0.264465 0.264465
0.270905 0.270905 0.270905
0.277344 0.277344 0.277344
0.283813 0.283813 0.283813
0.290253 0.290253 0.290253
0.296692 0.296692 0.296692
0.303162 0.303162 0.303162
0.309601 0.309601 0.309601
0.316040 0.316040 0.316040
0.322510 0.322510 0.322510
0.328949 0.328949 0.328949
0.335419 0.335419 0.335419
0.341858 0.341858 0.341858
0.348297 0.348297 0.348297
0.361206 0.361206 0.361206
0.374115 0.374115 0.374115
0.387024 0.387024 0.387024
0.399902 0.399902 0.399902
0.412811 0.412811 0.412811
0.425720 0.425720 0.425720
0.438599 0.438599 0.438599
0.451508 0.451508 0.451508
0.464417 0.464417 0.464417
0.477295 0.477295 0.477295
0.490204 0.490204 0.490204
0.503113 0.503113 0.503113
0.515991 0.515991 0.515991
0.245117 0.245117 0.245117
0.251556 0.251556 0.251556
0.257996 0.257996 0.257996
0.264465 0.264465 0.264465
0.270905 0.270905 0.270905
0.277344 0.277344 0.277344
0.283813 0.283813 0.283813
0.290253 0.290253 0.290253
0.296692 0.296692 0.296692
0.303162 0.303162 0.303162
0.309601 0.309601 0.309601
0.316040 0.316040 0.316040
0.322510 0.322510 0.322510
0.328949 0.328949 0.328949
0.335419 0.335419 0.335419
0.341858 0.341858 0.341858
0.348297 0.348297 0.348297
0.354767 0.354767 0.354767
0.361206 0.361206 0.361206
0.367645 0.367645 0.367645
0.380554 0.380554 0.380554
0.393463 0.393463 0.393463
0.406372 0.406372 0.406372
0.419250 0.419250 0.419250
0.432159 0.432159 0.432159
0.445068 0.445068 0.445068
0.457947 0.457947 0.457947
0.470856 0.470856 0.470856
0.483765 0.483765 0.483765
0.496643 0.496643 0.496643
0.509552 0.509552 0.509552
0.522461 0.522461 0.522461
0.257996 0.257996 0.257996
0.264465 0.264465 0.264465
0.270905 0.270905 0.270905
0.277344 0.277344 0.277344
0.283813 0.283813 0.283813
0.290253 0.290253 0.290253
0.296692 0.296692 0.296692
0.303162 0.303162 0.303162
0.309601 0.309601 0.309601
0.316040 0.316040 0.316040
0.322510 0.322510 0.322510
0.328949 0.328949 0.328949
0.335419 0.335419 0.335419
0.341858 0.341858 0.341858
0.348297 0.348297 0.348297
0.354767 0.354767 0.354767
0.361206 0.361206 0.361206
0.367645 0.367645 0.367645
0.374115 0.374115 0.374115
0.380554 0.380554 0.380554
0.387024 0.387024 0.387024
0.399902 0.399902 0.399902
0.412811 0.412811 0.412811
0.425720 0.425720 0.425720
0.438599 0.438599 0.438599
0.451508 0.451508 0.451508
0.464417 0.464417 0.464417
0.477295 0.477295 0.477295
0.490204 0.490204 0.490204
0.503113 0.503113 0.503113
0.515991 0.515991 0.515991
0.528900 0.528900 0.528900
0.270905 0.270905 0.270905
0.277344 0.277344 0.277344
0.283813 0.283813 0.283813
0.290253 0.290253 0.290253
0.296692 0.296692 0.296692
0.303162 0.303162 0.303162
0.309601 0.309601 0.309601
0.316040 0.316040 0.316040
0.322510 0.322510 0.322510
0.328949 0.328949 0.328949
0.335419 0.335419 0.335419
0.341858 0.341858 0.341858
0.348297 0.348297 0.348297
0.354767 0.354767 0.354767
0.361206 0.361206 0.361206
0.367645 0.367645 0.367645
0.374115 0.374115 0.374115
0.380554 0.380554 0.380554
0.387024 0.387024 0.387024
0.393463 0.393463 0.393463
0.399902 0.399902 0.399902
0.406372 0.406372 0.406372
0.419250 0.419250 0.419250
0.432159 0.432159 0.432159
0.445068 0.445068 0.445068
0.457947 0.457947 0.457947
0.470856 0.470856 0.470856
0.483765 0.483765 0.483765
0.496643 0.496643 0.496643
0.509552 0.509552 0.509552
0.522461 0.522461 0.522461
0.535370 0.535370 0.535370
0.283813 0.283813 0.283813
0.290253 0.290253 0.290253
0.296692 0.296692 0.296692
0.303162 0.303162 0.303162
0.309601 0.309601 0.309601
0.316040 0.316040 0.316040
0.322510 0.322510 0.322510
0.328949 0.328949 0.328949
0.335419 0.335419 0.335419
0.341858 0.341858 0.341858
0.348297 0.348297 0.348297
0.354767 0.354767 0.354767
0.361206 0.361206 0.361206
0.367645 0.367645 0.367645
0.374115 0.374115 0.374115
0.380554 0.380554 0.380554
0.387024 0.387024 0.387024
0.393463 0.393463 0.393463
0.399902 0.399902 0.399902
0.406372 0.406372 0.406372
0.412811 0.412811 0.412811
0.419250 0.419250 0.419250
0.425720 0.425720 0.425720
0.438599 0.438599 0.438599
0.451508 0.451508 0.451508
0.464417 0.464417 0.464417
0.477295 0.477295 0.477295
0.490204 0.490204 0.490204
0.503113 0.503113 0.503113
0.515991 0.515991 0.515991
0.528900 0.528900 0.528900
0.541809 0.541809 0.541809
0.296692 0.296692 0.296692
0.303162 0.303162 0.303162
0.309601 0.309601 0.309601
0.316040 0.316040 0.316040
0.322510 0.322510 0.322510
0.328949 0.328949 0.328949
0.335419 0.335419 0.335419
0.341858 0.341858 0.341858
0.348297 0.348297 0.348297
0.354767 0.354767 0.354767
0.361206 0.361206 0.361206
0.367645 0.367645 0.367645
0.374115 0.374115 0.374115
0.380554 0.380554 0.380554
0.386993 0.386993 0.386993
0.393463 0.393463 0.393463
0.399902 0.399902 0.399902
0.406372 0.406372 0.406372
0.412811 0.412811 0.412811
0.419250 0.419250 0.419250
0.425720 0.425720 0.425720
0.432159 0.432159 0.432159
0.438599 0.438599 0.438599
0.445068 0.445068 0.445068
0.457947 0.457947 0.457947
0.470856 0.470856 0.470856
0.483765 0.483765 0.483765
0.496643 0.496643 0.496643
0.509552 0.509552 0.509552
0.522461 0.522461 0.522461
0.535370 0.535370 0.535370
0.548248 0.548248 0.548248
0.309601 0.309601 0.309601
0.316040 0.316040 0.316040
0.322510 0.322510 0.322510
0.328949 0.328949 0.328949
0.335419 0.335419 0.335419
0.341858 0.341858 0.341858
0.348297 0.348297 0.348297
0.354767 0.354767 0.354767
0.361206 0.361206 0.361206
0.367645 0.367645 0.367645
0.374115 0.374115 0.374115
0.380554 0.380554 0.380554
0.386993 0.386993 0.386993
0.393463 0.393463 0.393463
0.399902 0.399902 0.399902
0.406342 0.406342 0.406342
0.412811 0.412811 0.412811
0.419250 0.419250 0.419250
0.425720 0.425720 0.425720
0.432159 0.432159 0.432159
0.438599 0.438599 0.438599
0.445068 0.445068 0.445068
0.451508 0.451508 0.451508
0.457947 0.457947 0.457947
0.464417 0.464417 0.464417
0.477295 0.477295 0.477295
0.490204 0.490204 0.490204
0.503113 0.503113 0.503113
0.515991 0.515991 0.515991
0.528900 0.528900 0.528900
0.541809 0.541809 0.541809
0.554718 0.554718 0.554718
0.322510 0.322510 0.322510
0.328949 0.328949 0.328949
0.335419 0.335419 0.335419
0.341858 0.341858 0.341858
0.348297 0.348297 0.348297
0.354767 0.354767 0.354767
0.361206 0.361206 0.361206
0.367645 0.367645 0.367645
0.374115 0.374115 0.374115
0.380554 0.380554 0.380554
0.386993 0.386993 0.386993
0.393463 0.393463 0.393463
0.399902 0.399902 0.399902
0.406342 0.406342 0.406342
0.412811 0.412811 0.412811
0.419250 0.419250 0.419250
0.425720 0.425720 0.425720
0.432159 0.432159 0.432159
0.438599 0.438599 0.438599
0.445068 0.445068 0.445068
0.451508 0.451508 0.451508
0.457947 0.457947 0.457947
0.464417 0.464417 0.464417
0.470856 0.470856 0.470856
0.477295 0.477295 0.477295
0.483765 0.483765 0.483765
0.496643 0.496643 0.496643
0.509552 0.509552 0.509552
0.522461 0.522461 0.522461
0.535370 0.535370 0.535370
0.548248 0.548248 0.548248
0.561157 0.561157 0.561157
0.335419 0.335419 0.335419
0.341858 0.341858 0.341858
0.348297 0.348297 0.348297
0.354767 0.354767 0.354767
0.361206 0.361206 0.361206
0.367645 0.367645 0.367645
0.374115 0.374115 0.374115
0.380554 0.380554 0.380554
0.386993 0.386993 0.386993
0.393463 0.393463 0.393463
0.399902 0.399902 0.399902
0.406342 0.406342 0.406342
0.412811 0.412811 0.412811
0.419250 0.419250 0.419250
0.425690 0.425690 0.425690
0.432159 0.432159 0.432159
0.438599 0.438599 0.438599
0.445068 0.445068 0.445068
0.451508 0.451508 0.451508
0.457947 0.457947 0.457947
0.464417 0.464417 0.464417
0.470856 0.470856 0.470856
0.477295 0.477295 0.477295
0.483765 0.483765 0.483765
0.490204 0.490204 0.490204
0.496643 0.496643 0.496643
0.503113 0.503113 0.503113
0.515991 0.515991 0.515991
0.528900 0.528900 0.528900
0.541809 0.541809 0.541809
0.554718 0.554718 0.554718
0.567596 0.567596 0.567596
0.348297 0.348297 0.348297
0.354767 0.354767 0.354767
0.361206 0.361206 0.361206
0.367645 0.367645 0.367645
0.374115 0.374115 0.374115
0.380554 0.380554 0.380554
0.386993 0.386993 0.386993
0.393463 0.393463 0.393463
0.399902 0.399902 0.399902
0.406342 0.406342 0.406342
0.412811 0.412811 0.412811
0.419250 0.419250 0.419250
0.425690 0.425690 0.425690
0.432159 0.432159 0.432159
0.438599 0.438599 0.438599
0.445038 0.445038 0.445038
0.451508 0.451508 0.451508
0.457947 0.457947 0.457947
