projects/GroupAssignment2CBS/res/luts/grayscale.CUBE
#Created by: Adobe Photoshop Export Color Lookup Plugin
TITLE "sample.png"
#LUT size
LUT_3D_SIZE 8
#data domain
#LUT data points
DOMAIN_MIN 0.000000 0.000000 0.000000
DOMAIN_MAX 0.903226 0.903226 0.903226
0.000000 0.000000 0.000000
0.051605 0.051605 0.051605
0.103210 0.103210 0.103210
0.154785 0.154785 0.154785
0.206421 0.206421 0.206421
0.257996 0.257996 0.257996
0.309601 0.309601 0.309601
0.361206 0.361206 0.361206
0.051605 0.051605 0.051605
0.077393 0.077393 0.077393
0.128998 0.128998 0.128998
0.180603 0.180603 0.180603
0.232208 0.232208 0.232208
0.283813 0.283813 0.283813
0.335419 0.335419 0.335419
0.386993 0.386993 0.386993
0.103210 0.103210 0.103210
0.128998 0.128998 0.128998
0.154785 0.154785 0.154785
0.206390 0.206390 0.206390
0.257996 0.257996 0.257996
0.309601 0.309601 0.309601
0.361206 0.361206 0.361206
0.412811 0.412811 0.412811
0.154785 0.154785 0.154785
0.180603 0.180603 0.180603
0.206390 0.206390 0.206390
0.232208 0.232208 0.232208
0.283813 0.283813 0.283813
0.335419 0.335419 0.335419
0.386993 0.386993 0.386993
0.438599 0.438599 0.438599
0.206421 0.206421 0.206421
0.232208 0.232208 0.232208
0.257996 0.257996 0.257996
0.283813 0.283813 0.283813
0.309601 0.309601 0.309601
0.361206 0.361206 0.361206
0.412811 0.412811 0.412811
0.464417 0.464417 0.464417
0.257996 0.257996 0.257996
0.283813 0.283813 0.283813
0.309601 0.309601 0.309601
0.335419 0.335419 0.335419
0.361206 0.361206 0.361206
0.387024 0.387024 0.387024
0.438599 0.438599 0.438599
0.490204 0.490204 0.490204
0.309601 0.309601 0.309601
0.335419 0.335419 0.335419
0.361206 0.361206 0.361206
0.386993 0.386993 0.386993
0.412811 0.412811 0.412811
0.438599 0.438599 0.438599
0.464417 0.464417 0.464417
0.515991 0.515991 0.515991
0.361206 0.361206 0.361206
0.386993 0.386993 0.386993
0.412811 0.412811 0.412811
0.438599 0.438599 0.438599
0.464417 0.464417 0.464417
0.490204 0.490204 0.490204
0.515991 0.515991 0.515991
0.541809 0.541809 0.541809
0.025787 0.025787 0.025787
0.103210 0.103210 0.103210
0.154785 0.154785 0.154785
0.206390 0.206390 0.206390
0.257996 0.257996 0.257996
0.309601 0.309601 0.309601
0.361206 0.361206 0.361206
0.412811 0.412811 0.412811
0.077393 0.077393 0.077393
0.129028 0.129028 0.129028
0.180634 0.180634 0.180634
0.232239 0.232239 0.232239
0.283844 0.283844 0.283844
0.335449 0.335449 0.335449
0.387024 0.387024 0.387024
0.438629 0.438629 0.438629
0.128998 0.128998 0.128998
0.180634 0.180634 0.180634
0.206421 0.206421 0.206421
0.258026 0.258026 0.258026
0.309631 0.309631 0.309631
0.361237 0.361237 0.361237
0.412842 0.412842 0.412842
0.464447 0.464447 0.464447
0.180603 0.180603 0.180603
0.232239 0.232239 0.232239
0.258026 0.258026 0.258026
0.283813 0.283813 0.283813
0.335449 0.335449 0.335449
0.387024 0.387024 0.387024
0.438629 0.438629 0.438629
0.490234 0.490234 0.490234
0.232208 0.232208 0.232208
0.283844 0.283844 0.283844
0.309631 0.309631 0.309631
0.335449 0.335449 0.335449
0.361237 0.361237 0.361237
0.412842 0.412842 0.412842
0.464447 0.464447 0.464447
0.516052 0.516052 0.516052
0.283813 0.283813 0.283813
0.335449 0.335449 0.335449
0.361237 0.361237 0.361237
0.387024 0.387024 0.387024
0.412842 0.412842 0.412842
0.438629 0.438629 0.438629
0.490234 0.490234 0.490234
0.541840 0.541840 0.541840
0.335419 0.335419 0.335419
0.387024 0.387024 0.387024
0.412842 0.412842 0.412842
0.438629 0.438629 0.438629
0.464447 0.464447 0.464447
0.490234 0.490234 0.490234
0.516052 0.516052 0.516052
0.567627 0.567627 0.567627
0.386993 0.386993 0.386993
0.438629 0.438629 0.438629
0.464447 0.464447 0.464447
0.490234 0.490234 0.490234
0.516052 0.516052 0.516052
0.541840 0.541840 0.541840
0.567627 0.567627 0.567627
0.593445 0.593445 0.593445
0.051605 0.051605 0.051605
0.128998 0.128998 0.128998
0.206390 0.206390 0.206390
0.257996 0.257996 0.257996
0.309601 0.309601 0.309601
0.361206 0.361206 0.361206
0.412811 0.412811 0.412811
0.464386 0.464386 0.464386
0.103210 0.103210 0.103210
0.154816 0.154816 0.154816
0.232239 0.232239 0.232239
0.283813 0.283813 0.283813
0.335449 0.335449 0.335449
0.387024 0.387024 0.387024
0.438629 0.438629 0.438629
0.490234 0.490234 0.490234
0.154785 0.154785 0.154785
0.206421 0.206421 0.206421
0.258057 0.258057 0.258057
0.309662 0.309662 0.309662
0.361267 0.361267 0.361267
0.412872 0.412872 0.412872
0.464478 0.464478 0.464478
0.516052 0.516052 0.516052
0.206390 0.206390 0.206390
0.258026 0.258026 0.258026
0.309662 0.309662 0.309662
0.335449 0.335449 0.335449
0.387054 0.387054 0.387054
0.438660 0.438660 0.438660
0.490265 0.490265 0.490265
0.541870 0.541870 0.541870
0.257996 0.257996 0.257996
0.309631 0.309631 0.309631
0.361267 0.361267 0.361267
0.387054 0.387054 0.387054
0.412872 0.412872 0.412872
0.464478 0.464478 0.464478
0.516083 0.516083 0.516083
0.567657 0.567657 0.567657
0.309601 0.309601 0.309601
0.361237 0.361237 0.361237
0.412872 0.412872 0.412872
0.438660 0.438660 0.438660
0.464478 0.464478 0.464478
0.490265 0.490265 0.490265
0.541870 0.541870 0.541870
0.593475 0.593475 0.593475
0.361206 0.361206 0.361206
0.412842 0.412842 0.412842
0.464478 0.464478 0.464478
0.490265 0.490265 0.490265
0.516083 0.516083 0.516083
0.541870 0.541870 0.541870
0.567657 0.567657 0.567657
0.619263 0.619263 0.619263
0.412811 0.412811 0.412811
0.464447 0.464447 0.464447
0.516052 0.516052 0.516052
0.541870 0.541870 0.541870
0.567657 0.567657 0.567657
0.593475 0.593475 0.593475
0.619263 0.619263 0.619263
0.645081 0.645081 0.645081
0.077393 0.077393 0.077393
0.154785 0.154785 0.154785
0.232208 0.232208 0.232208
0.309601 0.309601 0.309601
0.361206 0.361206 0.361206
0.412811 0.412811 0.412811
0.464386 0.464386 0.464386
0.515991 0.515991 0.515991
0.128998 0.128998 0.128998
0.180634 0.180634 0.180634
0.258026 0.258026 0.258026
0.335419 0.335419 0.335419
0.387024 0.387024 0.387024
0.438629 0.438629 0.438629
0.490234 0.490234 0.490234
0.541840 0.541840 0.541840
0.180603 0.180603 0.180603
0.232239 0.232239 0.232239
0.283844 0.283844 0.283844
0.361267 0.361267 0.361267
0.412872 0.412872 0.412872
0.464478 0.464478 0.464478
0.516052 0.516052 0.516052
0.567657 0.567657 0.567657
0.232208 0.232208 0.232208
0.283813 0.283813 0.283813
0.335449 0.335449 0.335449
0.387085 0.387085 0.387085
0.438690 0.438690 0.438690
0.490295 0.490295 0.490295
0.541901 0.541901 0.541901
0.593506 0.593506 0.593506
0.283813 0.283813 0.283813
0.335449 0.335449 0.335449
0.387054 0.387054 0.387054
0.438690 0.438690 0.438690
0.464508 0.464508 0.464508
0.516113 0.516113 0.516113
0.567688 0.567688 0.567688
0.619293 0.619293 0.619293
0.335419 0.335419 0.335419
0.387024 0.387024 0.387024
0.438660 0.438660 0.438660
0.490295 0.490295 0.490295
0.516113 0.516113 0.516113
0.541901 0.541901 0.541901
0.593506 0.593506 0.593506
0.645111 0.645111 0.645111
0.386993 0.386993 0.386993
0.438629 0.438629 0.438629
0.490265 0.490265 0.490265
0.541901 0.541901 0.541901
0.567688 0.567688 0.567688
0.593506 0.593506 0.593506
0.619293 0.619293 0.619293
0.670898 0.670898 0.670898
0.438599 0.438599 0.438599
0.490234 0.490234 0.490234
0.541870 0.541870 0.541870
0.593506 0.593506 0.593506
0.619293 0.619293 0.619293
0.645111 0.645111 0.645111
0.670898 0.670898 0.670898
0.696686 0.696686 0.696686
0.103210 0.103210 0.103210
0.180603 0.180603 0.180603
0.257996 0.257996 0.257996
0.335388 0.335388 0.335388
0.412811 0.412811 0.412811
0.464417 0.464417 0.464417
0.516022 0.516022 0.516022
0.567596 0.567596 0.567596
0.154816 0.154816 0.154816
0.206421 0.206421 0.206421
0.283844 0.283844 0.283844
0.361237 0.361237 0.361237
0.438660 0.438660 0.438660
0.490234 0.490234 0.490234
0.541840 0.541840 0.541840
0.593445 0.593445 0.593445
0.206390 0.206390 0.206390
0.258026 0.258026 0.258026
0.309662 0.309662 0.309662
0.387054 0.387054 0.387054
0.464478 0.464478 0.464478
0.516083 0.516083 0.516083
0.567688 0.567688 0.567688
0.619263 0.619263 0.619263
0.257996 0.257996 0.257996
0.309631 0.309631 0.309631
0.361267 0.361267 0.361267
0.412903 0.412903 0.412903
0.490295 0.490295 0.490295
0.541901 0.541901 0.541901
0.593506 0.593506 0.593506
0.645111 0.645111 0.645111
0.309601 0.309601 0.309601
0.361237 0.361237 0.361237
0.412872 0.412872 0.412872
0.464508 0.464508 0.464508
0.516144 0.516144 0.516144
0.567749 0.567749 0.567749
0.619354 0.619354 0.619354
0.670929 0.670929 0.670929
0.361206 0.361206 0.361206
0.412842 0.412842 0.412842
0.464478 0.464478 0.464478
0.516113 0.516113 0.516113
0.567749 0.567749 0.567749
0.593536 0.593536 0.593536
0.645142 0.645142 0.645142
0.696747 0.696747 0.696747
0.412811 0.412811 0.412811
0.464447 0.464447 0.464447
0.516083 0.516083 0.516083
0.567688 0.567688 0.567688
0.619354 0.619354 0.619354
0.645142 0.645142 0.645142
0.670929 0.670929 0.670929
0.722534 0.722534 0.722534
0.464417 0.464417 0.464417
0.516052 0.516052 0.516052
0.567657 0.567657 0.567657
0.619293 0.619293 0.619293
0.670929 0.670929 0.670929
0.696747 0.696747 0.696747
0.722534 0.722534 0.722534
0.748352 0.748352 0.748352
0.128998 0.128998 0.128998
0.206390 0.206390 0.206390
0.283813 0.283813 0.283813
0.361206 0.361206 0.361206
0.438599 0.438599 0.438599
0.516022 0.516022 0.516022
0.567596 0.567596 0.567596
0.619202 0.619202 0.619202
0.180603 0.180603 0.180603
0.232239 0.232239 0.232239
0.309631 0.309631 0.309631
0.387024 0.387024 0.387024
0.464447 0.464447 0.464447
0.541840 0.541840 0.541840
0.593445 0.593445 0.593445
0.645050 0.645050 0.645050
0.232208 0.232208 0.232208
0.283844 0.283844 0.283844
0.335449 0.335449 0.335449
0.412872 0.412872 0.412872
0.490265 0.490265 0.490265
0.567688 0.567688 0.567688
0.619263 0.619263 0.619263
0.670868 0.670868 0.670868
0.283813 0.283813 0.283813
0.335419 0.335419 0.335419
0.387054 0.387054 0.387054
0.438690 0.438690 0.438690
0.516113 0.516113 0.516113
0.593506 0.593506 0.593506
0.645111 0.645111 0.645111
0.696716 0.696716 0.696716
0.335419 0.335419 0.335419
0.387054 0.387054 0.387054
0.438660 0.438660 0.438660
0.490295 0.490295 0.490295
0.541931 0.541931 0.541931
0.619354 0.619354 0.619354
0.670929 0.670929 0.670929
0.722534 0.722534 0.722534
0.387024 0.387024 0.387024
0.438629 0.438629 0.438629
0.490265 0.490265 0.490265
0.541901 0.541901 0.541901
0.593536 0.593536 0.593536
0.645172 0.645172 0.645172
0.696777 0.696777 0.696777
0.748383 0.748383 0.748383
0.438599 0.438599 0.438599
0.490234 0.490234 0.490234
0.541870 0.541870 0.541870
0.593506 0.593506 0.593506
0.645142 0.645142 0.645142
0.696777 0.696777 0.696777
0.722565 0.722565 0.722565
0.774170 0.774170 0.774170
0.490204 0.490204 0.490204
0.541840 0.541840 0.541840
0.593475 0.593475 0.593475
0.645111 0.645111 0.645111
0.696747 0.696747 0.696747
0.748383 0.748383 0.748383
0.774170 0.774170 0.774170
0.799957 0.799957 0.799957
0.154816 0.154816 0.154816
0.232208 0.232208 0.232208
0.309601 0.309601 0.309601
0.386993 0.386993 0.386993
0.464417 0.464417 0.464417
0.541809 0.541809 0.541809
0.619202 0.619202 0.619202
0.670807 0.670807 0.670807
0.206390 0.206390 0.206390
0.258026 0.258026 0.258026
0.335419 0.335419 0.335419
0.412842 0.412842 0.412842
0.490234 0.490234 0.490234
0.567627 0.567627 0.567627
0.645050 0.645050 0.645050
0.696625 0.696625 0.696625
0.257996 0.257996 0.257996
0.309631 0.309631 0.309631
0.361267 0.361267 0.361267
0.438660 0.438660 0.438660
0.516083 0.516083 0.516083
0.593475 0.593475 0.593475
0.670868 0.670868 0.670868
0.722473 0.722473 0.722473
0.309601 0.309601 0.309601
0.361237 0.361237 0.361237
0.412872 0.412872 0.412872
0.464478 0.464478 0.464478
0.541901 0.541901 0.541901
0.619293 0.619293 0.619293
0.696716 0.696716 0.696716
0.748291 0.748291 0.748291
0.361206 0.361206 0.361206
0.412842 0.412842 0.412842
0.464478 0.464478 0.464478
0.516113 0.516113 0.516113
0.567749 0.567749 0.567749
0.645142 0.645142 0.645142
0.722534 0.722534 0.722534
0.774139 0.774139 0.774139
0.412811 0.412811 0.412811
0.464447 0.464447 0.464447
0.516083 0.516083 0.516083
0.567688 0.567688 0.567688
0.619354 0.619354 0.619354
0.670959 0.670959 0.670959
0.748383 0.748383 0.748383
0.799957 0.799957 0.799957
0.464417 0.464417 0.464417
0.516052 0.516052 0.516052
0.567657 0.567657 0.567657
0.619293 0.619293 0.619293
0.670929 0.670929 0.670929
0.722565 0.722565 0.722565
0.774200 0.774200 0.774200
0.825806 0.825806 0.825806
0.515991 0.515991 0.515991
0.567627 0.567627 0.567627
0.619263 0.619263 0.619263
0.670898 0.670898 0.670898
0.722534 0.722534 0.722534
0.774170 0.774170 0.774170
0.825806 0.825806 0.825806
0.851593 0.851593 0.851593
0.180603 0.180603 0.180603
0.257996 0.257996 0.257996
0.335388 0.335388 0.335388
0.412781 0.412781 0.412781
0.490204 0.490204 0.490204
0.567596 0.567596 0.567596
0.645020 0.645020 0.645020
0.722412 0.722412 0.722412
0.232208 0.232208 0.232208
0.283844 0.283844 0.283844
0.361237 0.361237 0.361237
0.438629 0.438629 0.438629
0.516052 0.516052 0.516052
0.593445 0.593445 0.593445
0.670837 0.670837 0.670837
0.748230 0.748230 0.748230
0.283813 0.283813 0.283813
0.335419 0.335419 0.335419
0.387054 0.387054 0.387054
0.464447 0.464447 0.464447
0.541870 0.541870 0.541870
0.619263 0.619263 0.619263
0.696655 0.696655 0.696655
0.774078 0.774078 0.774078
0.335388 0.335388 0.335388
0.387024 0.387024 0.387024
0.438660 0.438660 0.438660
0.490295 0.490295 0.490295
0.567719 0.567719 0.567719
0.645111 0.645111 0.645111
0.722504 0.722504 0.722504
0.799896 0.799896 0.799896
0.387024 0.387024 0.387024
0.438629 0.438629 0.438629
0.490265 0.490265 0.490265
0.541901 0.541901 0.541901
0.593536 0.593536 0.593536
0.670929 0.670929 0.670929
0.748352 0.748352 0.748352
0.825745 0.825745 0.825745
0.438599 0.438599 0.438599
0.490234 0.490234 0.490234
0.541870 0.541870 0.541870
0.593506 0.593506 0.593506
0.645142 0.645142 0.645142
0.696777 0.696777 0.696777
0.774170 0.774170 0.774170
0.851563 0.851563 0.851563
0.490204 0.490204 0.490204
0.541840 0.541840 0.541840
0.593475 0.593475 0.593475
0.645111 0.645111 0.645111
0.696747 0.696747 0.696747
0.748383 0.748383 0.748383
0.799988 0.799988 0.799988
0.877411 0.877411 0.877411
0.541809 0.541809 0.541809
0.593445 0.593445 0.593445
0.645081 0.645081 0.645081
0.696686 0.696686 0.696686
0.748352 0.748352 0.748352
0.799957 0.799957 0.799957
0.851593 0.851593 0.851593
0.903229 0.903229 0.903229
