projects/GroupAssignment2CBS/res/luts/grayscale.CUBE
#Created by: Adobe Photoshop Export Color Lookup Plugin
TITLE "sample.png"
#LUT size
LUT_3D_SIZE 5
#data domain
#LUT data points
DOMAIN_MIN 0.000000 0.000000 0.000000
DOMAIN_MAX 0.903226 0.903226 0.903226
0.000000 0.000000 0.000000
0.090302 0.090302 0.090302
0.180603 0.180603 0.180603
0.270905 0.270905 0.270905
0.361206 0.361206 0.361206
0.090302 0.090302 0.090302
0.135437 0.135437 0.135437
0.225739 0.225739 0.225739
0.316040 0.316040 0.316040
0.406342 0.406342 0.406342
0.180603 0.180603 0.180603
0.225739 0.225739 0.225739
0.270905 0.270905 0.270905
0.361206 0.361206 0.361206
0.451508 0.451508 0.451508
0.270905 0.270905 0.270905
0.316040 0.316040 0.316040
0.361206 0.361206 0.361206
0.406372 0.406372 0.406372
0.496643 0.496643 0.496643
0.361206 0.361206 0.361206
0.406342 0.406342 0.406342
0.451508 0.451508 0.451508
0.496643 0.496643 0.496643
0.541809 0.541809 0.541809
0.045135 0.045135 0.045135
0.180603 0.180603 0.180603
0.270905 0.270905 0.270905
0.361206 0.361206 0.361206
0.451508 0.451508 0.451508
0.135437 0.135437 0.135437
0.225800 0.225800 0.225800
0.316101 0.316101 0.316101
0.406403 0.406403 0.406403
0.496704 0.496704 0.496704
0.225739 0.225739 0.225739
0.316101 0.316101 0.316101
0.361237 0.361237 0.361237
0.451569 0.451569 0.451569
0.541840 0.541840 0.541840
0.316040 0.316040 0.316040
0.406403 0.406403 0.406403
0.451569 0.451569 0.451569
0.496704 0.496704 0.496704
0.587006 0.587006 0.587006
0.406342 0.406342 0.406342
0.496704 0.496704 0.496704
0.541840 0.541840 0.541840
0.587006 0.587006 0.587006
0.632172 0.632172 0.632172
0.090302 0.090302 0.090302
0.225739 0.225739 0.225739
0.361206 0.361206 0.361206
0.451508 0.451508 0.451508
0.541809 0.541809 0.541809
0.180603 0.180603 0.180603
0.270935 0.270935 0.270935
0.406403 0.406403 0.406403
0.496704 0.496704 0.496704
0.587006 0.587006 0.587006
0.270905 0.270905 0.270905
0.361237 0.361237 0.361237
0.451599 0.451599 0.451599
0.541901 0.541901 0.541901
0.632202 0.632202 0.632202
0.361206 0.361206 0.361206
0.451569 0.451569 0.451569
0.541901 0.541901 0.541901
0.587067 0.587067 0.587067
0.677368 0.677368 0.677368
0.451508 0.451508 0.451508
0.541840 0.541840 0.541840
0.632202 0.632202 0.632202
0.677368 0.677368 0.677368
0.722504 0.722504 0.722504
0.135468 0.135468 0.135468
0.270905 0.270905 0.270905
0.406342 0.406342 0.406342
0.541809 0.541809 0.541809
0.632111 0.632111 0.632111
0.225739 0.225739 0.225739
0.316101 0.316101 0.316101
0.451538 0.451538 0.451538
0.587006 0.587006 0.587006
0.677307 0.677307 0.677307
0.316040 0.316040 0.316040
0.406403 0.406403 0.406403
0.496765 0.496765 0.496765
0.632233 0.632233 0.632233
0.722504 0.722504 0.722504
0.406372 0.406372 0.406372
0.496704 0.496704 0.496704
0.587067 0.587067 0.587067
0.677429 0.677429 0.677429
0.767731 0.767731 0.767731
0.496643 0.496643 0.496643
0.587006 0.587006 0.587006
0.677368 0.677368 0.677368
0.767731 0.767731 0.767731
0.812866 0.812866 0.812866
0.180603 0.180603 0.180603
0.316040 0.316040 0.316040
0.451508 0.451508 0.451508
0.586975 0.586975 0.586975
0.722412 0.722412 0.722412
0.270905 0.270905 0.270905
0.361267 0.361267 0.361267
0.496704 0.496704 0.496704
0.632172 0.632172 0.632172
0.767609 0.767609 0.767609
0.361206 0.361206 0.361206
0.451538 0.451538 0.451538
0.541901 0.541901 0.541901
0.677368 0.677368 0.677368
0.812805 0.812805 0.812805
0.451508 0.451508 0.451508
0.541870 0.541870 0.541870
0.632202 0.632202 0.632202
0.722565 0.722565 0.722565
0.858032 0.858032 0.858032
0.541809 0.541809 0.541809
0.632172 0.632172 0.632172
0.722504 0.722504 0.722504
0.812866 0.812866 0.812866
0.903229 0.903229 0.903229
