projects/GroupAssignment2CBS/res/luts/warm.CUBE
#Created by: Adobe Photoshop Export Color Lookup Plugin
TITLE "colorcorrection.psd"
#LUT size
LUT_3D_SIZE 8
#data domain
#LUT data points
DOMAIN_MIN 0.000000 0.000000 0.000000
DOMAIN_MAX 0.903226 0.903226 0.903226
0.000000 0.000000 0.000000
0.097595 0.000000 0.000000
0.204590 0.000000 0.000000
0.311523 0.000000 0.000000
0.418427 0.000000 0.000000
0.525360 0.000000 0.000000
0.632324 0.000000 0.000000
0.739288 0.000000 0.000000
0.021362 0.082275 0.000000
0.108002 0.078156 0.000000
0.209869 0.066406 0.000000
0.314697 0.041351 0.000000
0.420685 0.000000 0.000000
0.527069 0.000000 0.000000
0.633667 0.000000 0.000000
0.740295 0.000000 0.000000
0.070587 0.178253 0.000000
0.131195 0.176636 0.000000
0.222351 0.171448 0.000000
0.322815 0.161957 0.000000
0.426422 0.146667 0.000000
0.531372 0.122314 0.000000
0.637085 0.081482 0.000000
0.743134 0.000000 0.000000
0.121338 0.274536 0.000000
0.165344 0.273376 0.000000
0.243256 0.270355 0.000000
0.336700 0.264709 0.000000
0.436371 0.256165 0.000000
0.539032 0.243591 0.000000
0.643158 0.226288 0.000000
0.748169 0.202301 0.000000
0.172821 0.370789 0.000000
0.205750 0.369965 0.000000
0.271393 0.367767 0.000000
0.356415 0.363983 0.000000
0.450958 0.358124 0.000000
0.550293 0.349792 0.000000
0.652161 0.338806 0.000000
0.755585 0.324371 0.000000
0.224701 0.466888 0.000000
0.250122 0.466339 0.000000
0.305084 0.464722 0.000000
0.381561 0.461823 0.000000
0.470154 0.457489 0.000000
0.565369 0.451385 0.000000
0.664307 0.443390 0.000000
0.765625 0.433167 0.000000
0.276093 0.563080 0.000000
0.296570 0.562653 0.000000
0.343109 0.561401 0.000000
0.411316 0.559113 0.000000
0.493469 0.555695 0.000000
0.584045 0.550934 0.000000
0.679596 0.544739 0.000000
0.778412 0.536896 0.000000
0.327545 0.659271 0.000000
0.344574 0.658875 0.000000
0.384369 0.657867 0.000000
0.445129 0.656006 0.000000
0.520752 0.653259 0.000000
0.606262 0.649414 0.000000
0.698059 0.644379 0.000000
0.793945 0.638031 0.000000
0.026306 0.000000 0.048126
0.110229 0.000000 0.048004
0.210724 0.000000 0.046600
0.315247 0.000000 0.044312
0.421051 0.000000 0.040436
0.527344 0.000000 0.035004
0.633942 0.000000 0.028198
0.740540 0.000000 0.019531
0.047241 0.080200 0.041962
0.119629 0.075989 0.041382
0.215668 0.064178 0.040283
0.318390 0.038269 0.037354
0.423370 0.000000 0.033630
0.529144 0.000000 0.028351
0.635254 0.000000 0.021515
0.741638 0.000000 0.012848
0.085571 0.177582 0.024261
0.141174 0.175415 0.023773
0.227966 0.170319 0.022186
0.326508 0.160858 0.019745
0.429047 0.145355 0.015656
0.533386 0.120880 0.010193
0.638702 0.079346 0.003357
0.744446 0.000000 0.000000
0.131897 0.273926 0.000000
0.173187 0.272736 0.000000
0.248230 0.269806 0.000000
0.340118 0.264160 0.000000
0.438995 0.255402 0.000000
0.540924 0.242981 0.000000
0.644684 0.225616 0.000000
0.749451 0.201447 0.000000
0.180298 0.370361 0.000000
0.212097 0.369446 0.000000
0.275787 0.367401 0.000000
0.359589 0.363617 0.000000
0.453461 0.357697 0.000000
0.552155 0.349396 0.000000
0.653687 0.338287 0.000000
0.756866 0.323853 0.000000
0.230072 0.466614 0.000000
0.254944 0.466034 0.000000
0.309113 0.464417 0.000000
0.384613 0.461517 0.000000
0.472412 0.457214 0.000000
0.567169 0.451080 0.000000
0.665833 0.443054 0.000000
0.766907 0.432770 0.000000
0.280548 0.562836 0.000000
0.300629 0.562378 0.000000
0.346558 0.561127 0.000000
0.414124 0.558838 0.000000
0.495667 0.555420 0.000000
0.585754 0.550720 0.000000
0.681061 0.544495 0.000000
0.779602 0.536652 0.000000
0.331207 0.659088 0.000000
0.348053 0.658691 0.000000
0.387268 0.657684 0.000000
0.447540 0.655823 0.000000
0.522888 0.653015 0.000000
0.608002 0.649200 0.000000
0.699432 0.644165 0.000000
0.795105 0.637848 0.000000
0.079285 0.000000 0.120605
0.137482 0.000000 0.120361
0.225769 0.000000 0.119904
0.324921 0.000000 0.118683
0.427887 0.000000 0.117096
0.532562 0.000000 0.114777
0.638031 0.000000 0.111786
0.743896 0.000000 0.107758
0.091919 0.074493 0.117798
0.145386 0.069824 0.117554
0.230377 0.057556 0.116852
0.328033 0.028595 0.115814
0.430084 0.000000 0.113953
0.534210 0.000000 0.111633
0.639343 0.000000 0.108459
0.745026 0.000000 0.104370
0.118591 0.174835 0.109802
0.163361 0.172882 0.109528
0.242035 0.167572 0.109009
0.335785 0.158051 0.107849
0.435760 0.142242 0.105927
0.538574 0.116852 0.103394
0.642761 0.073883 0.099976
0.747772 0.000000 0.095581
0.155365 0.272400 0.094330
0.191498 0.271210 0.093994
0.260986 0.268066 0.093170
0.348938 0.262543 0.091888
0.445526 0.253723 0.089630
0.546051 0.241150 0.086609
0.648712 0.223694 0.082642
0.752716 0.199341 0.077362
0.198090 0.369202 0.065063
0.227051 0.368378 0.064636
0.286987 0.366333 0.063751
0.367950 0.362427 0.061676
0.459717 0.356567 0.058838
0.557159 0.348175 0.054657
0.657654 0.337097 0.048920
0.760162 0.322510 0.041046
0.243774 0.465790 0.004425
0.267303 0.465179 0.003815
0.318970 0.463593 0.002167
0.392273 0.460693 0.000000
0.478394 0.456299 0.000000
0.571899 0.450226 0.000000
0.669708 0.442200 0.000000
0.770111 0.431885 0.000000
0.291595 0.562225 0.000000
0.310822 0.561737 0.000000
0.355225 0.560486 0.000000
0.421082 0.558197 0.000000
0.501373 0.554749 0.000000
0.590363 0.550018 0.000000
0.684814 0.543823 0.000000
0.782776 0.535919 0.000000
0.340363 0.658569 0.000000
0.356659 0.658173 0.000000
0.394928 0.657135 0.000000
0.453949 0.655273 0.000000
0.528015 0.652527 0.000000
0.612244 0.648682 0.000000
0.703064 0.643646 0.000000
0.798157 0.637299 0.000000
0.135468 0.000000 0.193054
0.175720 0.000000 0.192871
0.250031 0.000000 0.192566
0.341400 0.000000 0.191833
0.439880 0.000000 0.190857
0.541718 0.000000 0.189484
0.645264 0.000000 0.187653
0.749939 0.000000 0.185364
0.143250 0.063507 0.191284
0.181885 0.058441 0.191132
0.254395 0.043854 0.190704
0.344238 0.013000 0.190063
0.442047 0.000000 0.189117
0.543335 0.000000 0.187714
0.646637 0.000000 0.185760
0.751007 0.000000 0.183502
0.161835 0.170135 0.186493
0.196686 0.168121 0.186462
0.264648 0.162781 0.186035
0.351563 0.152924 0.185394
0.447449 0.136353 0.184265
0.547577 0.109711 0.182800
0.649902 0.063080 0.180878
0.753723 0.000000 0.178497
0.190216 0.269562 0.177826
0.220337 0.268341 0.177673
0.282043 0.265198 0.177216
0.364258 0.259460 0.176514
0.456909 0.250610 0.175323
0.554901 0.237885 0.173767
0.655884 0.219971 0.171783
0.758606 0.195313 0.169373
0.226013 0.367249 0.163605
0.251190 0.366455 0.163422
0.306030 0.364319 0.163055
0.382263 0.360413 0.162170
0.470734 0.354401 0.161011
0.565796 0.346069 0.159302
0.664642 0.334900 0.157135
0.765930 0.320251 0.154297
0.266418 0.464325 0.141846
0.287842 0.463684 0.141632
0.335785 0.462067 0.141083
0.405426 0.459229 0.140167
0.488861 0.454803 0.138672
0.580261 0.448700 0.136719
0.676483 0.440643 0.134155
0.775848 0.430237 0.130859
0.310089 0.561066 0.107086
0.328217 0.560577 0.106812
0.370117 0.559326 0.106262
0.433319 0.557037 0.104858
0.511139 0.553589 0.103119
0.598328 0.548859 0.100464
0.691467 0.542603 0.096985
0.788391 0.534668 0.092499
0.355896 0.657623 0.037750
0.371429 0.657196 0.037689
0.408112 0.656189 0.035980
0.465088 0.654297 0.033569
0.537292 0.651550 0.029297
0.619934 0.647705 0.023987
0.709534 0.642639 0.017273
0.803619 0.636322 0.008423
0.191315 0.000000 0.265503
0.221008 0.000000 0.265381
0.282654 0.000000 0.265076
0.364685 0.000000 0.264648
0.457306 0.000000 0.263916
0.555115 0.000000 0.262939
0.656097 0.000000 0.261688
0.758789 0.000000 0.260162
0.196838 0.043365 0.264191
0.225708 0.037170 0.264099
0.286163 0.019928 0.263885
0.367310 0.000000 0.263428
0.459320 0.000000 0.262695
0.556702 0.000000 0.261688
0.657349 0.000000 0.260437
0.759857 0.000000 0.258850
0.210175 0.162842 0.260956
0.237518 0.160736 0.260864
0.295197 0.155090 0.260559
0.373993 0.144745 0.260101
0.464386 0.127106 0.259430
0.560699 0.098267 0.258453
0.660614 0.042450 0.257172
0.762573 0.000000 0.255524
0.232483 0.265106 0.255005
0.257050 0.264038 0.254883
0.310608 0.260803 0.254669
0.385773 0.254944 0.254120
0.473297 0.246002 0.253418
0.567871 0.232788 0.252411
0.666412 0.214478 0.251099
0.767426 0.188965 0.249390
0.261780 0.364258 0.245758
0.283600 0.363434 0.245636
0.332275 0.361237 0.245331
0.402618 0.357391 0.244812
0.486633 0.351318 0.244110
0.578522 0.342773 0.242981
0.675018 0.331573 0.241577
0.774628 0.316681 0.239929
0.296783 0.462097 0.232300
0.315796 0.461487 0.232178
0.359375 0.459839 0.231934
0.424438 0.456970 0.231323
0.504059 0.452515 0.230530
0.592560 0.446381 0.229401
0.686615 0.438263 0.227936
0.784332 0.427795 0.226074
0.335876 0.559326 0.213531
0.352570 0.558807 0.213379
0.391327 0.557526 0.213013
0.450867 0.555267 0.212463
0.525543 0.551819 0.211517
0.610229 0.546997 0.210266
0.701355 0.540710 0.208649
0.796692 0.532837 0.206573
0.378204 0.656158 0.187195
0.392395 0.655823 0.186981
0.426971 0.654755 0.186554
0.481232 0.652863 0.185944
0.550903 0.650085 0.184906
0.631287 0.646210 0.183472
0.719055 0.641144 0.181580
0.811768 0.634766 0.179199
0.246643 0.000000 0.337891
0.269897 0.000000 0.337799
0.321167 0.000000 0.337585
0.393890 0.000000 0.337250
0.479675 0.000000 0.336700
0.572906 0.000000 0.335968
0.670532 0.000000 0.335052
0.770813 0.000000 0.333862
0.250824 0.010559 0.336914
0.273651 0.003784 0.336823
0.324219 0.000000 0.336670
0.396301 0.000000 0.336273
0.481567 0.000000 0.335785
0.574402 0.000000 0.335052
0.671783 0.000000 0.334137
0.771851 0.000000 0.332916
0.261353 0.152161 0.334503
0.283325 0.149658 0.334442
0.331940 0.143860 0.334198
0.402435 0.132294 0.333862
0.486450 0.113129 0.333313
0.578278 0.079834 0.332581
0.674927 0.009155 0.331604
0.774506 0.000000 0.330475
0.278900 0.259094 0.330078
0.299438 0.257751 0.329987
0.345398 0.254578 0.329834
0.413116 0.248688 0.329437
0.494934 0.239197 0.328918
0.585175 0.225708 0.328156
0.680573 0.206696 0.327179
0.779236 0.179901 0.325958
0.303131 0.360168 0.323303
0.321899 0.359253 0.323242
0.364624 0.357056 0.322998
0.428711 0.353119 0.322662
0.507416 0.347015 0.322052
0.595337 0.338348 0.321289
0.688995 0.326782 0.320313
0.786255 0.311798 0.319031
0.333313 0.459015 0.313690
0.350006 0.458374 0.313599
0.389069 0.456726 0.313354
0.448975 0.453857 0.312988
0.524048 0.449341 0.312439
0.609009 0.443085 0.311646
0.700287 0.434906 0.310638
0.795776 0.424438 0.309326
0.367859 0.556915 0.300659
0.382843 0.556335 0.300568
0.418274 0.555084 0.300385
0.473724 0.552826 0.299988
0.544586 0.549316 0.299377
0.626038 0.544525 0.298523
0.714630 0.538208 0.297455
0.807983 0.530243 0.296051
0.406219 0.654175 0.283569
0.419342 0.653778 0.283478
0.451233 0.652802 0.283203
0.502380 0.650879 0.282806
0.568817 0.648071 0.282104
0.646454 0.644196 0.281189
0.731903 0.639130 0.280029
0.822754 0.632751 0.278625
0.302216 0.000000 0.410278
0.320953 0.000000 0.410217
0.363800 0.000000 0.410034
0.428101 0.000000 0.409790
0.506866 0.000000 0.409332
0.594910 0.000000 0.408752
0.688629 0.000000 0.408020
0.785980 0.000000 0.407074
0.305542 0.000000 0.409515
0.324127 0.000000 0.409454
0.366455 0.000000 0.409302
0.430298 0.000000 0.408997
0.508698 0.000000 0.408600
0.596344 0.000000 0.408020
0.689819 0.000000 0.407288
0.786987 0.000000 0.406372
0.313965 0.137024 0.407593
0.331818 0.134521 0.407532
0.373352 0.127563 0.407379
0.435883 0.114716 0.407104
0.513245 0.092041 0.406708
0.600098 0.048492 0.406128
0.692902 0.000000 0.405334
0.789520 0.000000 0.404419
0.328339 0.250977 0.404114
0.345306 0.249664 0.404053
0.384949 0.246216 0.403931
0.445587 0.239929 0.403625
0.521240 0.230286 0.403229
0.606628 0.216187 0.402618
0.698334 0.196014 0.401886
0.794159 0.167511 0.400940
0.348694 0.354645 0.398865
0.364532 0.353760 0.398804
0.401825 0.351593 0.398621
0.459778 0.347504 0.398346
0.533020 0.341217 0.397888
0.616364 0.332489 0.397308
0.706451 0.320740 0.396545
0.801086 0.305206 0.395569
0.374390 0.454956 0.391449
0.388977 0.454315 0.391388
0.423889 0.452637 0.391205
0.478546 0.449707 0.390930
0.548584 0.445190 0.390503
0.629364 0.438904 0.389893
0.717438 0.430603 0.389130
0.810394 0.419922 0.388123
0.404907 0.553711 0.381592
0.418091 0.553223 0.381561
0.450256 0.551910 0.381378
0.501404 0.549652 0.381104
0.568024 0.546112 0.380615
0.645782 0.541290 0.379974
0.731293 0.534943 0.379181
0.822266 0.526886 0.378143
0.439209 0.651642 0.368927
0.451324 0.651184 0.368866
0.480621 0.650177 0.368652
0.528198 0.648285 0.368378
0.590942 0.645508 0.367920
0.665405 0.641602 0.367249
0.748108 0.636475 0.366364
0.836700 0.630066 0.365356
0.357880 0.000000 0.482635
0.373260 0.000000 0.482605
0.409790 0.000000 0.482513
0.466492 0.000000 0.482239
0.538483 0.000000 0.481934
0.620911 0.000000 0.481445
0.710327 0.000000 0.480835
0.804321 0.000000 0.480072
0.360565 0.000000 0.482056
0.375793 0.000000 0.481995
0.412079 0.000000 0.481873
0.468414 0.000000 0.481659
0.540100 0.000000 0.481293
0.622284 0.000000 0.480804
0.711487 0.000000 0.480225
0.805328 0.000000 0.479462
0.367523 0.115509 0.480469
0.382507 0.112213 0.480438
0.417877 0.104340 0.480316
0.473358 0.088562 0.480072
0.544342 0.057709 0.479736
0.625854 0.000000 0.479279
0.714478 0.000000 0.478668
0.807800 0.000000 0.477905
0.379486 0.240356 0.477692
0.393707 0.239075 0.477631
0.428162 0.235413 0.477478
0.482208 0.228943 0.477264
0.551758 0.218536 0.476898
0.632080 0.203308 0.476440
0.719666 0.181793 0.475830
0.812256 0.150452 0.475067
0.396729 0.347687 0.473389
0.410248 0.346832 0.473328
0.443085 0.344452 0.473236
0.495148 0.340363 0.472961
0.562714 0.333923 0.472626
0.641205 0.324982 0.472168
0.727478 0.312744 0.471558
0.818970 0.296906 0.470764
0.418915 0.449860 0.467407
0.431671 0.449219 0.467407
0.462555 0.447540 0.467255
0.512177 0.444580 0.467041
0.577271 0.439941 0.466644
0.653687 0.433502 0.466156
0.738037 0.425110 0.465546
0.828064 0.414307 0.464752
0.445740 0.549744 0.459564
0.457489 0.549255 0.459503
0.486481 0.547943 0.459381
0.533356 0.545624 0.459137
0.595490 0.542114 0.458801
0.669281 0.537170 0.458313
0.751465 0.530731 0.457611
0.839600 0.522644 0.456848
0.476440 0.648407 0.449554
0.487396 0.648010 0.449493
0.514191 0.646973 0.449371
0.558228 0.645050 0.449097
0.617188 0.642273 0.448730
0.688049 0.638306 0.448242
0.767670 0.633148 0.447571
0.853638 0.626709 0.446747
