projects/GroupAssignment2CBS/res/luts/warm.CUBE
#Created by: Adobe Photoshop Export Color Lookup Plugin
TITLE "colorcorrection.psd"
#LUT size
LUT_3D_SIZE 32
#data domain
DOMAIN_MIN 0.0 0.0 0.0
DOMAIN_MAX 1.0 1.0 1.0
#LUT data points
0.000000 0.000000 0.000000
0.020508 0.000000 0.000000
0.044098 0.000000 0.000000
0.070190 0.000000 0.000000
0.097595 0.000000 0.000000
0.123993 0.000000 0.000000
0.150879 0.000000 0.000000
0.177521 0.000000 0.000000
0.204590 0.000000 0.000000
0.231293 0.000000 0.000000
0.257874 0.000000 0.000000
0.284637 0.000000 0.000000
0.311523 0.000000 0.000000
0.338135 0.000000 0.000000
0.364868 0.000000 0.000000
0.391693 0.000000 0.000000
0.418427 0.000000 0.000000
0.445160 0.000000 0.000000
0.471924 0.000000 0.000000
0.498657 0.000000 0.000000
0.525360 0.000000 0.000000
0.552124 0.000000 0.000000
0.578888 0.000000 0.000000
0.605560 0.000000 0.000000
0.632324 0.000000 0.000000
0.659058 0.000000 0.000000
0.685791 0.000000 0.000000
0.712463 0.000000 0.000000
0.739288 0.000000 0.000000
0.765961 0.000000 0.000000
0.792725 0.000000 0.000000
0.819458 0.000000 0.000000
0.003540 0.016083 0.000000
0.024048 0.014709 0.000000
0.047546 0.013336 0.000000
0.072998 0.011627 0.000000
0.099396 0.009186 0.000000
0.125732 0.005798 0.000000
0.152069 0.002136 0.000000
0.178558 0.000000 0.000000
0.205353 0.000000 0.000000
0.231964 0.000000 0.000000
0.258575 0.000000 0.000000
0.285217 0.000000 0.000000
0.311890 0.000000 0.000000
0.338623 0.000000 0.000000
0.365417 0.000000 0.000000
0.392120 0.000000 0.000000
0.418823 0.000000 0.000000
0.445496 0.000000 0.000000
0.472260 0.000000 0.000000
0.498962 0.000000 0.000000
0.525665 0.000000 0.000000
0.552399 0.000000 0.000000
0.579132 0.000000 0.000000
0.605835 0.000000 0.000000
0.632507 0.000000 0.000000
0.659271 0.000000 0.000000
0.686005 0.000000 0.000000
0.712708 0.000000 0.000000
0.739471 0.000000 0.000000
0.766144 0.000000 0.000000
0.792877 0.000000 0.000000
0.819611 0.000000 0.000000
0.007111 0.034271 0.000000
0.027985 0.033264 0.000000
0.050964 0.031860 0.000000
0.075500 0.030212 0.000000
0.101471 0.027863 0.000000
0.127380 0.024506 0.000000
0.153564 0.020081 0.000000
0.179840 0.015778 0.000000
0.206329 0.010284 0.000000
0.232788 0.003845 0.000000
0.259430 0.000000 0.000000
0.285980 0.000000 0.000000
0.312592 0.000000 0.000000
0.339172 0.000000 0.000000
0.365753 0.000000 0.000000
0.392487 0.000000 0.000000
0.419128 0.000000 0.000000
0.445953 0.000000 0.000000
0.472565 0.000000 0.000000
0.499237 0.000000 0.000000
0.525940 0.000000 0.000000
0.552582 0.000000 0.000000
0.579346 0.000000 0.000000
0.606110 0.000000 0.000000
0.632782 0.000000 0.000000
0.659485 0.000000 0.000000
0.686249 0.000000 0.000000
0.712921 0.000000 0.000000
0.739716 0.000000 0.000000
0.766327 0.000000 0.000000
0.793091 0.000000 0.000000
0.819824 0.000000 0.000000
0.013947 0.058228 0.000000
0.034180 0.057129 0.000000
0.056000 0.056061 0.000000
0.079315 0.054718 0.000000
0.104156 0.052460 0.000000
0.129822 0.049957 0.000000
0.155396 0.046722 0.000000
0.181519 0.041962 0.000000
0.207794 0.036652 0.000000
0.234100 0.030121 0.000000
0.260468 0.023102 0.000000
0.286896 0.015076 0.000000
0.313446 0.005829 0.000000
0.339996 0.000000 0.000000
0.366669 0.000000 0.000000
0.393127 0.000000 0.000000
0.419891 0.000000 0.000000
0.446442 0.000000 0.000000
0.473175 0.000000 0.000000
0.499756 0.000000 0.000000
0.526520 0.000000 0.000000
0.553131 0.000000 0.000000
0.579803 0.000000 0.000000
0.606415 0.000000 0.000000
0.633148 0.000000 0.000000
0.659851 0.000000 0.000000
0.686493 0.000000 0.000000
0.713257 0.000000 0.000000
0.739929 0.000000 0.000000
0.766663 0.000000 0.000000
0.793365 0.000000 0.000000
0.820038 0.000000 0.000000
0.021362 0.082275 0.000000
0.041809 0.081482 0.000000
0.061432 0.081116 0.000000
0.083893 0.079620 0.000000
0.108002 0.078156 0.000000
0.132690 0.076050 0.000000
0.157867 0.073730 0.000000
0.183441 0.070892 0.000000
0.209869 0.066406 0.000000
0.235931 0.061768 0.000000
0.261841 0.056580 0.000000
0.288177 0.049988 0.000000
0.314697 0.041351 0.000000
0.341034 0.031128 0.000000
0.367615 0.019684 0.000000
0.394043 0.007416 0.000000
0.420685 0.000000 0.000000
0.447205 0.000000 0.000000
0.473846 0.000000 0.000000
0.500397 0.000000 0.000000
0.527069 0.000000 0.000000
0.553680 0.000000 0.000000
0.580353 0.000000 0.000000
0.607025 0.000000 0.000000
0.633667 0.000000 0.000000
0.660309 0.000000 0.000000
0.686981 0.000000 0.000000
0.713654 0.000000 0.000000
0.740295 0.000000 0.000000
0.767029 0.000000 0.000000
0.793732 0.000000 0.000000
0.820404 0.000000 0.000000
0.031982 0.106140 0.000000
0.050842 0.105835 0.000000
0.069061 0.105164 0.000000
0.089569 0.104370 0.000000
0.112885 0.102905 0.000000
0.136688 0.101227 0.000000
0.161041 0.099762 0.000000
0.186371 0.097137 0.000000
0.211945 0.094391 0.000000
0.237885 0.090546 0.000000
0.263824 0.086609 0.000000
0.289917 0.081909 0.000000
0.316132 0.076324 0.000000
0.342468 0.069550 0.000000
0.368835 0.061890 0.000000
0.395172 0.052277 0.000000
0.421783 0.039734 0.000000
0.448242 0.025482 0.000000
0.474762 0.010284 0.000000
0.501282 0.000000 0.000000
0.527893 0.000000 0.000000
0.554474 0.000000 0.000000
0.581024 0.000000 0.000000
0.607697 0.000000 0.000000
0.634247 0.000000 0.000000
0.660950 0.000000 0.000000
0.687592 0.000000 0.000000
0.714203 0.000000 0.000000
0.740845 0.000000 0.000000
0.767517 0.000000 0.000000
0.794189 0.000000 0.000000
0.820892 0.000000 0.000000
0.044464 0.130219 0.000000
0.061432 0.129669 0.000000
0.077087 0.129425 0.000000
0.096863 0.128632 0.000000
0.118378 0.127563 0.000000
0.141083 0.126495 0.000000
0.165497 0.124542 0.000000
0.189972 0.122742 0.000000
0.214813 0.120667 0.000000
0.240265 0.117981 0.000000
0.266052 0.114563 0.000000
0.291962 0.110992 0.000000
0.317963 0.106750 0.000000
0.344055 0.102051 0.000000
0.370361 0.096252 0.000000
0.396576 0.089813 0.000000
0.423065 0.081848 0.000000
0.449432 0.073090 0.000000
0.475830 0.062317 0.000000
0.502289 0.049408 0.000000
0.528778 0.032196 0.000000
0.555298 0.013031 0.000000
0.581879 0.000000 0.000000
0.608490 0.000000 0.000000
0.635010 0.000000 0.000000
0.661621 0.000000 0.000000
0.688293 0.000000 0.000000
0.714844 0.000000 0.000000
0.741547 0.000000 0.000000
0.768127 0.000000 0.000000
0.794769 0.000000 0.000000
0.821442 0.000000 0.000000
0.057159 0.154327 0.000000
0.071808 0.153870 0.000000
0.086395 0.153412 0.000000
0.103973 0.152863 0.000000
0.124573 0.152100 0.000000
0.146576 0.150970 0.000000
0.169617 0.149750 0.000000
0.193573 0.148224 0.000000
0.218384 0.146118 0.000000
0.243408 0.143890 0.000000
0.268738 0.141388 0.000000
0.294342 0.138458 0.000000
0.320313 0.134949 0.000000
0.346069 0.131073 0.000000
0.372162 0.126831 0.000000
0.398254 0.121857 0.000000
0.424622 0.115997 0.000000
0.450867 0.109680 0.000000
0.477264 0.102112 0.000000
0.503571 0.093689 0.000000
0.530090 0.083557 0.000000
0.556488 0.072083 0.000000
0.582916 0.057831 0.000000
0.609375 0.039642 0.000000
0.636047 0.015503 0.000000
0.662537 0.000000 0.000000
0.689056 0.000000 0.000000
0.715668 0.000000 0.000000
0.742218 0.000000 0.000000
0.768829 0.000000 0.000000
0.795471 0.000000 0.000000
0.822113 0.000000 0.000000
0.070587 0.178253 0.000000
0.082886 0.178070 0.000000
0.096039 0.177673 0.000000
0.112305 0.177185 0.000000
0.131195 0.176636 0.000000
0.152588 0.175537 0.000000
0.174988 0.174286 0.000000
0.198242 0.173004 0.000000
0.222351 0.171448 0.000000
0.246948 0.169556 0.000000
0.271973 0.167206 0.000000
0.297272 0.164734 0.000000
0.322815 0.161957 0.000000
0.348450 0.158875 0.000000
0.374390 0.155151 0.000000
0.400299 0.151123 0.000000
0.426422 0.146667 0.000000
0.452454 0.141846 0.000000
0.478729 0.135986 0.000000
0.505066 0.129547 0.000000
0.531372 0.122314 0.000000
0.557709 0.114441 0.000000
0.584137 0.105164 0.000000
0.610565 0.094360 0.000000
0.637085 0.081482 0.000000
0.663574 0.065948 0.000000
0.690063 0.045746 0.000000
0.716614 0.019745 0.000000
0.743134 0.000000 0.000000
0.769745 0.000000 0.000000
0.796295 0.000000 0.000000
0.822906 0.000000 0.000000
0.083130 0.202393 0.000000
0.094391 0.202057 0.000000
0.106323 0.201721 0.000000
0.120941 0.201477 0.000000
0.138947 0.200806 0.000000
0.158936 0.199951 0.000000
0.180695 0.198944 0.000000
0.203400 0.197693 0.000000
0.226898 0.196350 0.000000
0.250977 0.194702 0.000000
0.275513 0.192871 0.000000
0.300446 0.190765 0.000000
0.325653 0.188385 0.000000
0.351166 0.185577 0.000000
0.376648 0.182709 0.000000
0.402496 0.179260 0.000000
0.428436 0.175415 0.000000
0.454529 0.171204 0.000000
0.480560 0.166565 0.000000
0.506775 0.161377 0.000000
0.532928 0.155914 0.000000
0.559204 0.149506 0.000000
0.585571 0.142487 0.000000
0.611908 0.134583 0.000000
0.638336 0.125610 0.000000
0.664764 0.115540 0.000000
0.691193 0.104279 0.000000
0.717712 0.090454 0.000000
0.744171 0.074097 0.000000
0.770721 0.052338 0.000000
0.797180 0.024017 0.000000
0.823822 0.000000 0.000000
0.095459 0.226501 0.000000
0.106201 0.226135 0.000000
0.116638 0.225983 0.000000
0.130768 0.225464 0.000000
0.147675 0.224945 0.000000
0.166595 0.224182 0.000000
0.187134 0.223389 0.000000
0.208893 0.222443 0.000000
0.231812 0.221252 0.000000
0.255493 0.219635 0.000000
0.279541 0.218048 0.000000
0.303925 0.216309 0.000000
0.328979 0.214111 0.000000
0.354187 0.211700 0.000000
0.379517 0.209045 0.000000
0.405151 0.206085 0.000000
0.430817 0.202972 0.000000
0.456635 0.199463 0.000000
0.482635 0.195465 0.000000
0.508636 0.191284 0.000000
0.534729 0.186554 0.000000
0.560913 0.181274 0.000000
0.587158 0.175598 0.000000
0.613434 0.169281 0.000000
0.639740 0.162537 0.000000
0.666107 0.154877 0.000000
0.692474 0.146362 0.000000
0.718933 0.136658 0.000000
0.745361 0.126007 0.000000
0.771759 0.113922 0.000000
0.798340 0.098907 0.000000
0.824768 0.082001 0.000000
0.108612 0.250519 0.000000
0.117737 0.250244 0.000000
0.127289 0.250122 0.000000
0.140350 0.249664 0.000000
0.156250 0.249207 0.000000
0.174194 0.248566 0.000000
0.193848 0.247833 0.000000
0.214874 0.246979 0.000000
0.237305 0.245758 0.000000
0.260284 0.244476 0.000000
0.283844 0.243073 0.000000
0.308014 0.241455 0.000000
0.332642 0.239471 0.000000
0.357483 0.237488 0.000000
0.382660 0.235107 0.000000
0.407928 0.232544 0.000000
0.433533 0.229767 0.000000
0.459137 0.226746 0.000000
0.484955 0.223267 0.000000
0.510803 0.219604 0.000000
0.536804 0.215637 0.000000
0.562866 0.211151 0.000000
0.588928 0.206451 0.000000
0.615082 0.201141 0.000000
0.641357 0.195404 0.000000
0.667603 0.189362 0.000000
0.693878 0.182526 0.000000
0.720276 0.174957 0.000000
0.746643 0.166809 0.000000
0.773071 0.157532 0.000000
0.799530 0.147308 0.000000
0.825958 0.136078 0.000000
0.121338 0.274536 0.000000
0.129852 0.274353 0.000000
0.138855 0.274139 0.000000
0.150635 0.273834 0.000000
0.165344 0.273376 0.000000
0.182190 0.272888 0.000000
0.201294 0.272186 0.000000
0.221741 0.271271 0.000000
0.243256 0.270355 0.000000
0.265686 0.269226 0.000000
0.288879 0.267792 0.000000
0.312561 0.266357 0.000000
0.336700 0.264709 0.000000
0.361267 0.262817 0.000000
0.385956 0.260895 0.000000
0.411133 0.258575 0.000000
0.436371 0.256165 0.000000
0.461823 0.253357 0.000000
0.487427 0.250427 0.000000
0.513184 0.247162 0.000000
0.539032 0.243591 0.000000
0.564911 0.239899 0.000000
0.590973 0.235596 0.000000
0.617004 0.231201 0.000000
0.643158 0.226288 0.000000
0.669342 0.221039 0.000000
0.695557 0.215302 0.000000
0.721832 0.209167 0.000000
0.748169 0.202301 0.000000
0.774445 0.195160 0.000000
0.800812 0.187134 0.000000
0.827271 0.178223 0.000000
0.134613 0.298553 0.000000
0.142120 0.298340 0.000000
0.149994 0.298187 0.000000
0.161133 0.297974 0.000000
0.174927 0.297546 0.000000
0.191345 0.296967 0.000000
0.209259 0.296356 0.000000
0.228790 0.295654 0.000000
0.249756 0.294678 0.000000
0.271423 0.293793 0.000000
0.294098 0.292511 0.000000
0.317352 0.291229 0.000000
0.341095 0.289734 0.000000
0.365143 0.288086 0.000000
0.389679 0.286285 0.000000
0.414551 0.284210 0.000000
0.439728 0.281891 0.000000
0.464813 0.279572 0.000000
0.490265 0.276855 0.000000
0.515808 0.274048 0.000000
0.541473 0.270905 0.000000
0.567261 0.267487 0.000000
0.593170 0.263855 0.000000
0.619080 0.260010 0.000000
0.645172 0.255554 0.000000
0.671204 0.251129 0.000000
0.697327 0.246185 0.000000
0.723541 0.240784 0.000000
0.749756 0.235138 0.000000
0.776031 0.229034 0.000000
0.802338 0.222351 0.000000
0.828644 0.215179 0.000000
0.147003 0.322693 0.000000
0.154266 0.322418 0.000000
0.161896 0.322235 0.000000
0.171906 0.322083 0.000000
0.185181 0.321655 0.000000
0.200378 0.321167 0.000000
0.217499 0.320618 0.000000
0.236237 0.320007 0.000000
0.256531 0.319092 0.000000
0.277740 0.318176 0.000000
0.299713 0.317139 0.000000
0.322510 0.315948 0.000000
0.345795 0.314606 0.000000
0.369659 0.313049 0.000000
0.393707 0.311493 0.000000
0.418304 0.309631 0.000000
0.443085 0.307556 0.000000
0.468170 0.305359 0.000000
0.493317 0.302948 0.000000
0.518707 0.300323 0.000000
0.544159 0.297638 0.000000
0.569794 0.294556 0.000000
0.595551 0.291321 0.000000
0.621399 0.287811 0.000000
0.647308 0.283966 0.000000
0.673248 0.280060 0.000000
0.699341 0.275665 0.000000
0.725403 0.270996 0.000000
0.751526 0.266052 0.000000
0.777740 0.260773 0.000000
0.803955 0.255035 0.000000
0.830231 0.248871 0.000000
0.159943 0.346710 0.000000
0.166412 0.346588 0.000000
0.173157 0.346466 0.000000
0.183167 0.346069 0.000000
0.195221 0.345825 0.000000
0.209625 0.345367 0.000000
0.226196 0.344849 0.000000
0.244202 0.344269 0.000000
0.263580 0.343506 0.000000
0.284149 0.342651 0.000000
0.305847 0.341644 0.000000
0.328094 0.340576 0.000000
0.350983 0.339325 0.000000
0.374390 0.337891 0.000000
0.398193 0.336395 0.000000
0.422424 0.334686 0.000000
0.446899 0.332916 0.000000
0.471619 0.330933 0.000000
0.496643 0.328735 0.000000
0.521851 0.326324 0.000000
0.547089 0.323914 0.000000
0.572571 0.321136 0.000000
0.598175 0.318207 0.000000
0.623840 0.315002 0.000000
0.649658 0.311584 0.000000
0.675476 0.308105 0.000000
0.701416 0.304230 0.000000
0.727448 0.300018 0.000000
0.753479 0.295654 0.000000
0.779633 0.290894 0.000000
0.805695 0.286011 0.000000
0.831909 0.280640 0.000000
0.172821 0.370789 0.000000
0.178986 0.370575 0.000000
0.185577 0.370422 0.000000
0.194489 0.370209 0.000000
0.205750 0.369965 0.000000
0.219421 0.369568 0.000000
0.235260 0.369080 0.000000
0.252502 0.368530 0.000000
0.271393 0.367767 0.000000
0.291321 0.367004 0.000000
0.312225 0.366119 0.000000
0.334015 0.365112 0.000000
0.356415 0.363983 0.000000
0.379456 0.362701 0.000000
0.402863 0.361298 0.000000
0.426788 0.359741 0.000000
0.450958 0.358124 0.000000
0.475555 0.356293 0.000000
0.500214 0.354279 0.000000
0.525208 0.352112 0.000000
0.550293 0.349792 0.000000
0.575562 0.347382 0.000000
0.600983 0.344696 0.000000
0.626526 0.341827 0.000000
0.652161 0.338806 0.000000
0.677948 0.335449 0.000000
0.703735 0.331970 0.000000
0.729645 0.328278 0.000000
0.755585 0.324371 0.000000
0.781586 0.320160 0.000000
0.807648 0.315643 0.000000
0.833801 0.310944 0.000000
0.186127 0.394745 0.000000
0.191315 0.394653 0.000000
0.197449 0.394501 0.000000
0.205780 0.394318 0.000000
0.216583 0.394012 0.000000
0.229614 0.393677 0.000000
0.244568 0.393188 0.000000
0.261169 0.392670 0.000000
0.279297 0.392090 0.000000
0.298615 0.391357 0.000000
0.319061 0.390472 0.000000
0.340302 0.389526 0.000000
0.362244 0.388489 0.000000
0.384766 0.387360 0.000000
0.407959 0.386047 0.000000
0.431427 0.384644 0.000000
0.455383 0.383118 0.000000
0.479523 0.381409 0.000000
0.504120 0.379578 0.000000
0.528778 0.377625 0.000000
0.553772 0.375458 0.000000
0.578735 0.373291 0.000000
0.604065 0.370728 0.000000
0.629364 0.368195 0.000000
0.654907 0.365356 0.000000
0.680511 0.362396 0.000000
0.706207 0.359222 0.000000
0.731995 0.355896 0.000000
0.757813 0.352325 0.000000
0.783783 0.348450 0.000000
0.809753 0.344391 0.000000
0.835724 0.340179 0.000000
0.198853 0.418793 0.000000
0.203766 0.418732 0.000000
0.209442 0.418610 0.000000
0.217316 0.418427 0.000000
0.227722 0.418091 0.000000
0.239990 0.417755 0.000000
0.254059 0.417450 0.000000
0.270050 0.416901 0.000000
0.287537 0.416351 0.000000
0.306274 0.415649 0.000000
0.326019 0.414917 0.000000
0.346863 0.413971 0.000000
0.368317 0.413025 0.000000
0.390503 0.411896 0.000000
0.413239 0.410736 0.000000
0.436493 0.409393 0.000000
0.460052 0.407928 0.000000
0.483948 0.406403 0.000000
0.508179 0.404755 0.000000
0.532684 0.402924 0.000000
0.557373 0.400970 0.000000
0.582275 0.398804 0.000000
0.607361 0.396545 0.000000
0.632538 0.394226 0.000000
0.657837 0.391663 0.000000
0.683350 0.388885 0.000000
0.708923 0.385956 0.000000
0.734558 0.382874 0.000000
0.760315 0.379578 0.000000
0.786072 0.376190 0.000000
0.811981 0.372498 0.000000
0.837921 0.368622 0.000000
0.211517 0.442932 0.000000
0.216370 0.442810 0.000000
0.221832 0.442627 0.000000
0.229218 0.442444 0.000000
0.238678 0.442261 0.000000
0.250580 0.441895 0.000000
0.264099 0.441528 0.000000
0.279449 0.441010 0.000000
0.296295 0.440491 0.000000
0.314392 0.439880 0.000000
0.333588 0.439178 0.000000
0.353790 0.438385 0.000000
0.374786 0.437469 0.000000
0.396545 0.436432 0.000000
0.418793 0.435333 0.000000
0.441711 0.434082 0.000000
0.464874 0.432800 0.000000
0.488556 0.431305 0.000000
0.512482 0.429779 0.000000
0.536743 0.428070 0.000000
0.561157 0.426300 0.000000
0.585846 0.424316 0.000000
0.610748 0.422241 0.000000
0.635803 0.419983 0.000000
0.661011 0.417603 0.000000
0.686279 0.415161 0.000000
0.711700 0.412476 0.000000
0.737274 0.409576 0.000000
0.762848 0.406586 0.000000
0.788544 0.403381 0.000000
0.814362 0.400055 0.000000
0.840210 0.396484 0.000000
0.224701 0.466888 0.000000
0.228943 0.466827 0.000000
0.234009 0.466705 0.000000
0.240906 0.466553 0.000000
0.250122 0.466339 0.000000
0.261200 0.466034 0.000000
0.274139 0.465668 0.000000
0.288879 0.465210 0.000000
0.305084 0.464722 0.000000
0.322632 0.464142 0.000000
0.341278 0.463470 0.000000
0.360962 0.462738 0.000000
0.381561 0.461823 0.000000
0.402802 0.460938 0.000000
0.424774 0.459869 0.000000
0.447174 0.458710 0.000000
0.470154 0.457489 0.000000
0.493378 0.456146 0.000000
0.517151 0.454681 0.000000
0.541046 0.453094 0.000000
0.565369 0.451385 0.000000
0.589783 0.449615 0.000000
0.614410 0.447693 0.000000
0.639252 0.445618 0.000000
0.664307 0.443390 0.000000
0.689453 0.441040 0.000000
0.714722 0.438538 0.000000
0.740143 0.435944 0.000000
0.765625 0.433167 0.000000
0.791229 0.430176 0.000000
0.816895 0.427063 0.000000
0.842590 0.423889 0.000000
0.237396 0.490967 0.000000
0.241425 0.490936 0.000000
0.246185 0.490814 0.000000
0.252960 0.490631 0.000000
0.261566 0.490387 0.000000
0.272095 0.490082 0.000000
0.284454 0.489777 0.000000
0.298523 0.489410 0.000000
0.314240 0.488892 0.000000
0.331360 0.488281 0.000000
0.349304 0.487732 0.000000
0.368500 0.487030 0.000000
0.388672 0.486206 0.000000
0.409393 0.485321 0.000000
0.430908 0.484375 0.000000
0.452911 0.483307 0.000000
0.475616 0.482117 0.000000
0.498566 0.480865 0.000000
0.521912 0.479523 0.000000
0.545624 0.477997 0.000000
0.569641 0.476440 0.000000
0.593903 0.474731 0.000000
0.618317 0.472931 0.000000
0.643005 0.471039 0.000000
0.667877 0.468933 0.000000
0.692841 0.466766 0.000000
0.717987 0.464447 0.000000
0.743195 0.461975 0.000000
0.768524 0.459412 0.000000
0.794006 0.456696 0.000000
0.819580 0.453796 0.000000
0.845215 0.450775 0.000000
0.250305 0.515015 0.000000
0.254089 0.514954 0.000000
0.258606 0.514832 0.000000
0.264984 0.514679 0.000000
0.273193 0.514465 0.000000
0.283264 0.514191 0.000000
0.295105 0.513916 0.000000
0.308716 0.513519 0.000000
0.323578 0.513092 0.000000
0.339996 0.512573 0.000000
0.357727 0.511963 0.000000
0.376312 0.511292 0.000000
0.395996 0.510498 0.000000
0.416260 0.509674 0.000000
0.437378 0.508820 0.000000
0.458984 0.507813 0.000000
0.481323 0.506653 0.000000
0.503967 0.505493 0.000000
0.527039 0.504242 0.000000
0.550415 0.502869 0.000000
0.574219 0.501343 0.000000
0.598236 0.499725 0.000000
0.622437 0.498077 0.000000
0.646912 0.496277 0.000000
0.671539 0.494354 0.000000
0.696350 0.492310 0.000000
0.721375 0.490112 0.000000
0.746521 0.487793 0.000000
0.771698 0.485382 0.000000
0.796997 0.482880 0.000000
0.822449 0.480194 0.000000
0.847961 0.477356 0.000000
0.263245 0.539032 0.000000
0.267029 0.538971 0.000000
0.271057 0.538879 0.000000
0.277161 0.538727 0.000000
0.284912 0.538513 0.000000
0.294403 0.538330 0.000000
0.305725 0.538055 0.000000
0.318909 0.537628 0.000000
0.333282 0.537231 0.000000
0.349121 0.536743 0.000000
0.366150 0.536194 0.000000
0.384338 0.535583 0.000000
0.403503 0.534821 0.000000
0.423370 0.534058 0.000000
0.444122 0.533173 0.000000
0.465485 0.532227 0.000000
0.487183 0.531250 0.000000
0.509644 0.530060 0.000000
0.532318 0.528931 0.000000
0.555573 0.527557 0.000000
0.578918 0.526245 0.000000
0.602753 0.524719 0.000000
0.626740 0.523132 0.000000
0.651062 0.521393 0.000000
0.675476 0.519592 0.000000
0.700165 0.517639 0.000000
0.724945 0.515656 0.000000
0.749847 0.513519 0.000000
0.774963 0.511230 0.000000
0.800171 0.508850 0.000000
0.825470 0.506317 0.000000
0.850891 0.503662 0.000000
0.276093 0.563080 0.000000
0.279694 0.563019 0.000000
0.283478 0.562958 0.000000
0.289276 0.562805 0.000000
0.296570 0.562653 0.000000
0.305756 0.562408 0.000000
0.316742 0.562134 0.000000
0.329254 0.561768 0.000000
0.343109 0.561401 0.000000
0.358429 0.560913 0.000000
0.375153 0.560333 0.000000
0.392700 0.559784 0.000000
0.411316 0.559113 0.000000
0.430786 0.558380 0.000000
0.451080 0.557556 0.000000
0.472046 0.556641 0.000000
0.493469 0.555695 0.000000
0.515503 0.554626 0.000000
0.537964 0.553497 0.000000
0.560852 0.552277 0.000000
0.584045 0.550934 0.000000
0.607513 0.549561 0.000000
0.631256 0.548096 0.000000
0.655365 0.546448 0.000000
0.679596 0.544739 0.000000
0.704102 0.542908 0.000000
0.728699 0.540985 0.000000
0.753510 0.539001 0.000000
0.778412 0.536896 0.000000
0.803467 0.534637 0.000000
0.828644 0.532257 0.000000
0.853912 0.529785 0.000000
0.289001 0.587128 0.000000
0.292236 0.587067 0.000000
0.296021 0.586975 0.000000
0.301361 0.586884 0.000000
0.308502 0.586700 0.000000
0.317261 0.586487 0.000000
0.327637 0.586243 0.000000
0.339661 0.585876 0.000000
0.353180 0.585510 0.000000
0.368011 0.585083 0.000000
0.384033 0.584595 0.000000
0.401306 0.583984 0.000000
0.419434 0.583344 0.000000
0.438446 0.582672 0.000000
0.458344 0.581879 0.000000
0.478821 0.581055 0.000000
0.500000 0.580139 0.000000
0.521576 0.579132 0.000000
0.543793 0.578033 0.000000
0.566284 0.576904 0.000000
0.589294 0.575623 0.000000
0.612518 0.574310 0.000000
0.636017 0.572937 0.000000
0.659851 0.571381 0.000000
0.683929 0.569763 0.000000
0.708160 0.568054 0.000000
0.732605 0.566254 0.000000
0.757233 0.564362 0.000000
0.782013 0.562317 0.000000
0.806946 0.560242 0.000000
0.832001 0.557983 0.000000
0.857117 0.555695 0.000000
0.301636 0.611237 0.000000
0.304962 0.611145 0.000000
0.308624 0.611053 0.000000
0.313660 0.610931 0.000000
0.320404 0.610748 0.000000
0.328705 0.610596 0.000000
0.338898 0.610260 0.000000
0.350403 0.609985 0.000000
0.363403 0.609650 0.000000
0.377777 0.609222 0.000000
0.393311 0.608765 0.000000
0.410095 0.608185 0.000000
0.427795 0.607605 0.000000
0.446350 0.606964 0.000000
0.465729 0.606232 0.000000
0.485901 0.605408 0.000000
0.506683 0.604523 0.000000
0.528046 0.603577 0.000000
0.549774 0.602570 0.000000
0.572052 0.601471 0.000000
0.594696 0.600281 0.000000
0.617645 0.599060 0.000000
0.641022 0.597656 0.000000
0.664581 0.596252 0.000000
0.688446 0.594696 0.000000
0.712494 0.593109 0.000000
0.736755 0.591400 0.000000
0.761200 0.589600 0.000000
0.785797 0.587708 0.000000
0.810608 0.585693 0.000000
0.835449 0.583588 0.000000
0.860535 0.581360 0.000000
0.314697 0.635254 0.000000
0.317719 0.635162 0.000000
0.321167 0.635101 0.000000
0.325989 0.634979 0.000000
0.332458 0.634827 0.000000
0.340546 0.634644 0.000000
0.350098 0.634399 0.000000
0.361237 0.634094 0.000000
0.373810 0.633759 0.000000
0.387695 0.633362 0.000000
0.402771 0.632935 0.000000
0.419098 0.632385 0.000000
0.436340 0.631805 0.000000
0.454498 0.631195 0.000000
0.473541 0.630493 0.000000
0.493195 0.629730 0.000000
0.513702 0.628876 0.000000
0.534546 0.627991 0.000000
