projects/GroupAssignment2CBS/res/luts/warm.CUBE
#Created by: Adobe Photoshop Export Color Lookup Plugin
TITLE "colorcorrection.psd"
#LUT size
LUT_3D_SIZE 5
#data domain
#LUT data points
DOMAIN_MIN 0.000000 0.000000 0.000000
DOMAIN_MAX 0.903226 0.903226 0.903226
0.000000 0.000000 0.000000
0.177521 0.000000 0.000000
0.364868 0.000000 0.000000
0.552124 0.000000 0.000000
0.739288 0.000000 0.000000
0.057159 0.154327 0.000000
0.193573 0.148224 0.000000
0.372162 0.126831 0.000000
0.556488 0.072083 0.000000
0.742218 0.000000 0.000000
0.147003 0.322693 0.000000
0.236237 0.320007 0.000000
0.393707 0.311493 0.000000
0.569794 0.294556 0.000000
0.751526 0.266052 0.000000
0.237396 0.490967 0.000000
0.298523 0.489410 0.000000
0.430908 0.484375 0.000000
0.593903 0.474731 0.000000
0.768524 0.459412 0.000000
0.327545 0.659271 0.000000
0.372101 0.658203 0.000000
0.481384 0.654785 0.000000
0.628723 0.648224 0.000000
0.793945 0.638031 0.000000
0.065826 0.000000 0.102570
0.196716 0.000000 0.101898
0.373627 0.000000 0.099518
0.557343 0.000000 0.094696
0.742889 0.000000 0.087341
0.100983 0.151001 0.092865
0.211212 0.144775 0.092102
0.380707 0.122742 0.089478
0.561707 0.065186 0.084473
0.745819 0.000000 0.075897
0.169891 0.321228 0.054596
0.250580 0.318542 0.053040
0.401703 0.309998 0.048981
0.574799 0.293060 0.040741
0.755096 0.264252 0.026764
0.251678 0.490112 0.000000
0.309601 0.488556 0.000000
0.438080 0.483490 0.000000
0.598663 0.473877 0.000000
0.771973 0.458557 0.000000
0.337402 0.658722 0.000000
0.380585 0.657654 0.000000
0.487640 0.654175 0.000000
0.633148 0.647675 0.000000
0.797150 0.637482 0.000000
0.163574 0.000000 0.229248
0.246246 0.000000 0.228943
0.399261 0.000000 0.227905
0.573242 0.000000 0.225983
0.753967 0.000000 0.222900
0.180603 0.140686 0.225098
0.257660 0.133850 0.224792
0.405792 0.109894 0.223724
0.577454 0.040649 0.221771
0.756897 0.000000 0.218628
0.226013 0.316864 0.211792
0.289825 0.314178 0.211426
0.425385 0.305420 0.210297
0.590240 0.288055 0.208099
0.765900 0.258942 0.204834
0.290771 0.487549 0.183716
0.341278 0.485931 0.183197
0.459351 0.480896 0.181854
0.613251 0.471161 0.179413
0.782562 0.455719 0.175415
0.366364 0.656921 0.127869
0.405884 0.655853 0.127289
0.506348 0.652405 0.125366
0.646729 0.645874 0.121643
0.807343 0.635620 0.115723
0.260681 0.000000 0.355957
0.316711 0.000000 0.355774
0.442780 0.000000 0.355164
0.601837 0.000000 0.354004
0.774292 0.000000 0.352203
0.271423 0.118530 0.353516
0.325287 0.110535 0.353333
0.448517 0.080261 0.352692
0.605743 0.000000 0.351532
0.777130 0.000000 0.349731
0.301880 0.308472 0.345795
0.350525 0.305634 0.345612
0.465820 0.296631 0.344971
0.617737 0.278778 0.343719
0.785858 0.248138 0.341919
0.351196 0.482697 0.330688
0.392639 0.481018 0.330414
0.496490 0.475891 0.329773
0.639557 0.466064 0.328491
0.801910 0.450378 0.326508
0.413940 0.653625 0.305542
0.448486 0.652496 0.305328
0.539490 0.649078 0.304565
0.671387 0.642456 0.303192
0.825928 0.632141 0.301025
0.357880 0.000000 0.482635
0.398529 0.000000 0.482513
0.500824 0.000000 0.482086
0.642731 0.000000 0.481323
0.804321 0.000000 0.480072
0.365326 0.073883 0.480957
0.405090 0.061005 0.480835
0.505768 0.006744 0.480408
0.646332 0.000000 0.479645
0.807037 0.000000 0.478394
0.387451 0.294952 0.475739
0.424713 0.291962 0.475616
0.520874 0.282349 0.475189
0.657379 0.263397 0.474335
0.815369 0.230286 0.473114
0.425171 0.474976 0.465668
0.458740 0.473297 0.465485
0.547607 0.468079 0.465057
0.677521 0.458069 0.464233
0.830719 0.441925 0.462952
0.476440 0.648407 0.449554
0.505829 0.647278 0.449402
0.585999 0.643799 0.448944
0.707184 0.637177 0.448090
0.853638 0.626709 0.446747
